;FLAVOR:Marlin
;TIME:15327
;Filament used: 16.6515m
;Layer height: 0.2
;Generated with Cura_SteamEngine 1.2.3
M140 S60
M104 S230
M109 S230
G28
G1 Z50.00 F400
G92 E0
G1 F200 E3
G92 E0
M132 X Y Z A
M907 X100 Y100 Z50 A100
;LAYER_COUNT:25
;LAYER:0
M107
M204 S2000
G0 F3000 X-6.014 Y14.055 Z0.3
;TYPE:SKIRT
G1 F1500 X-5.533 Y14.323 E0.02747
G1 X-4.93 Y14.813 E0.06623
G1 X-4.813 Y14.93 E0.07449
G1 X-4.453 Y15.347 E0.10197
G1 X-4.156 Y15.811 E0.12946
G1 X-3.93 Y16.314 E0.15697
G1 X-3.779 Y16.844 E0.18446
G1 X-3.7 Y17.617 E0.22323
G1 X-3.7 Y62.383 E2.45662
G1 X-3.74 Y62.933 E2.48413
G1 X-3.859 Y63.471 E2.51162
G1 X-4.055 Y63.986 E2.53911
G1 X-4.323 Y64.467 E2.56658
G1 X-4.813 Y65.07 E2.60534
G1 X-4.93 Y65.187 E2.6136
G1 X-5.347 Y65.547 E2.64108
G1 X-5.811 Y65.844 E2.66857
G1 X-6.314 Y66.07 E2.69608
G1 X-6.844 Y66.221 E2.72357
G1 X-7.617 Y66.3 E2.76234
G1 X-92.383 Y66.3 E6.99133
G1 X-92.933 Y66.26 E7.01884
G1 X-93.471 Y66.141 E7.04633
G1 X-93.986 Y65.945 E7.07383
G1 X-94.467 Y65.677 E7.1013
G1 X-95.07 Y65.187 E7.14006
G1 X-95.187 Y65.07 E7.14831
G1 X-95.547 Y64.653 E7.1758
G1 X-95.844 Y64.189 E7.20328
G1 X-96.07 Y63.686 E7.2308
G1 X-96.221 Y63.156 E7.25829
G1 X-96.3 Y62.383 E7.29706
G1 X-96.3 Y17.617 E9.53044
G1 X-96.26 Y17.067 E9.55795
G1 X-96.141 Y16.529 E9.58544
G1 X-95.945 Y16.014 E9.61293
G1 X-95.677 Y15.533 E9.6404
G1 X-95.187 Y14.93 E9.67917
G1 X-95.07 Y14.813 E9.68742
G1 X-94.653 Y14.453 E9.71491
G1 X-94.189 Y14.156 E9.74239
G1 X-93.686 Y13.93 E9.7699
G1 X-93.156 Y13.779 E9.7974
G1 X-92.383 Y13.7 E9.83616
G1 X-7.617 Y13.7 E14.06516
G1 X-7.067 Y13.74 E14.09267
G1 X-6.529 Y13.859 E14.12016
G1 X-6.014 Y14.055 E14.14765
G0 F3000 X-6.107 Y14.454
G1 F1500 X-5.659 Y14.72 E14.17364
G1 X-5.213 Y15.096 E14.20275
G1 X-5.096 Y15.213 E14.211
G1 X-4.757 Y15.609 E14.23701
G1 X-4.482 Y16.051 E14.26298
G1 X-4.278 Y16.531 E14.289
G1 X-4.15 Y17.036 E14.31499
G1 X-4.1 Y17.617 E14.34409
G1 X-4.1 Y62.383 E16.57747
G1 X-4.14 Y62.903 E16.60349
G1 X-4.259 Y63.41 E16.62947
G1 X-4.454 Y63.893 E16.65546
G1 X-4.72 Y64.341 E16.68145
G1 X-5.096 Y64.787 E16.71056
G1 X-5.213 Y64.904 E16.71881
G1 X-5.609 Y65.243 E16.74482
G1 X-6.051 Y65.518 E16.77079
G1 X-6.531 Y65.722 E16.79681
G1 X-7.036 Y65.85 E16.8228
G1 X-7.617 Y65.9 E16.85189
G1 X-92.383 Y65.9 E21.08089
G1 X-92.903 Y65.86 E21.10691
G1 X-93.41 Y65.741 E21.13289
G1 X-93.893 Y65.546 E21.15887
G1 X-94.341 Y65.28 E21.18487
G1 X-94.787 Y64.904 E21.21397
G1 X-94.904 Y64.787 E21.22223
G1 X-95.243 Y64.391 E21.24823
G1 X-95.518 Y63.949 E21.2742
G1 X-95.722 Y63.469 E21.30022
G1 X-95.85 Y62.964 E21.32622
G1 X-95.9 Y62.383 E21.35531
G1 X-95.9 Y17.617 E23.58869
G1 X-95.86 Y17.097 E23.61471
G1 X-95.741 Y16.59 E23.6407
G1 X-95.546 Y16.107 E23.66668
G1 X-95.28 Y15.659 E23.69268
G1 X-94.904 Y15.213 E23.72178
G1 X-94.787 Y15.096 E23.73003
G1 X-94.391 Y14.757 E23.75604
G1 X-93.949 Y14.482 E23.78201
G1 X-93.469 Y14.278 E23.80803
G1 X-92.964 Y14.15 E23.83402
G1 X-92.383 Y14.1 E23.86312
G1 X-7.617 Y14.1 E28.09211
G1 X-7.097 Y14.14 E28.11813
G1 X-6.59 Y14.259 E28.14411
G1 X-6.107 Y14.454 E28.1701
G0 F3000 X-6.205 Y14.853
G1 F1500 X-5.793 Y15.118 E28.19454
G1 X-5.496 Y15.379 E28.21426
G1 X-5.379 Y15.496 E28.22252
G1 X-5.062 Y15.869 E28.24694
G1 X-4.81 Y16.289 E28.27138
G1 X-4.63 Y16.744 E28.29579
G1 X-4.526 Y17.222 E28.32019
G1 X-4.5 Y17.617 E28.33994
G1 X-4.5 Y62.383 E30.57333
G1 X-4.54 Y62.871 E30.59776
G1 X-4.659 Y63.346 E30.62219
G1 X-4.853 Y63.795 E30.64659
G1 X-5.118 Y64.207 E30.67103
G1 X-5.379 Y64.504 E30.69075
G1 X-5.496 Y64.621 E30.69901
G1 X-5.869 Y64.938 E30.72343
G1 X-6.289 Y65.19 E30.74787
G1 X-6.744 Y65.37 E30.77228
G1 X-7.222 Y65.474 E30.79668
G1 X-7.617 Y65.5 E30.81643
G1 X-92.383 Y65.5 E35.04543
G1 X-92.871 Y65.46 E35.06985
G1 X-93.346 Y65.341 E35.09428
G1 X-93.795 Y65.147 E35.11869
G1 X-94.207 Y64.882 E35.14313
G1 X-94.504 Y64.621 E35.16285
G1 X-94.621 Y64.504 E35.17111
G1 X-94.938 Y64.131 E35.19553
G1 X-95.19 Y63.711 E35.21996
G1 X-95.37 Y63.256 E35.24438
G1 X-95.474 Y62.778 E35.26878
G1 X-95.5 Y62.383 E35.28853
G1 X-95.5 Y17.617 E37.52192
G1 X-95.46 Y17.129 E37.54634
G1 X-95.341 Y16.654 E37.57077
G1 X-95.147 Y16.205 E37.59518
G1 X-94.882 Y15.793 E37.61962
G1 X-94.621 Y15.496 E37.63934
G1 X-94.504 Y15.379 E37.6476
G1 X-94.131 Y15.062 E37.67202
G1 X-93.711 Y14.81 E37.69645
G1 X-93.256 Y14.63 E37.72087
G1 X-92.778 Y14.526 E37.74527
G1 X-92.383 Y14.5 E37.76502
G1 X-7.617 Y14.5 E41.99401
G1 X-7.129 Y14.54 E42.01844
G1 X-6.654 Y14.659 E42.04287
G1 X-6.205 Y14.853 E42.06727
G0 F3000 X-6.723 Y15.058
G1 F1500 X-6.311 Y15.252 E42.08999
G1 X-5.779 Y15.662 E42.1235
G1 X-5.662 Y15.779 E42.13176
G1 X-5.369 Y16.128 E42.15449
G1 X-5.142 Y16.523 E42.17722
G1 X-4.987 Y16.951 E42.19993
G1 X-4.9 Y17.617 E42.23344
G1 X-4.9 Y62.383 E44.46683
G1 X-4.94 Y62.837 E44.48956
G1 X-5.058 Y63.277 E44.51229
G1 X-5.252 Y63.689 E44.53501
G1 X-5.662 Y64.221 E44.56852
G1 X-5.779 Y64.338 E44.57677
G1 X-6.128 Y64.631 E44.59951
G1 X-6.523 Y64.858 E44.62224
G1 X-6.951 Y65.013 E44.64495
G1 X-7.617 Y65.1 E44.67846
G1 X-92.383 Y65.1 E48.90745
G1 X-92.837 Y65.06 E48.93019
G1 X-93.277 Y64.942 E48.95292
G1 X-93.689 Y64.748 E48.97563
G1 X-94.221 Y64.338 E49.00914
G1 X-94.338 Y64.221 E49.0174
G1 X-94.631 Y63.872 E49.04013
G1 X-94.858 Y63.477 E49.06286
G1 X-95.013 Y63.049 E49.08557
G1 X-95.1 Y62.383 E49.11908
G1 X-95.1 Y17.617 E51.35247
G1 X-95.06 Y17.163 E51.3752
G1 X-94.942 Y16.723 E51.39793
G1 X-94.748 Y16.311 E51.42065
G1 X-94.338 Y15.779 E51.45416
G1 X-94.221 Y15.662 E51.46242
G1 X-93.872 Y15.369 E51.48515
G1 X-93.477 Y15.142 E51.50788
G1 X-93.049 Y14.987 E51.53059
G1 X-92.383 Y14.9 E51.5641
G1 X-7.617 Y14.9 E55.79309
G1 X-7.163 Y14.94 E55.81583
G1 X-6.723 Y15.058 E55.83856
G0 F3000 X-7.617 Y15.3
G1 F1500 X-7.2 Y15.34 E55.85946
G1 X-6.798 Y15.458 E55.88036
G1 X-6.426 Y15.651 E55.90127
G1 X-6.061 Y15.944 E55.92462
G1 X-5.944 Y16.061 E55.93287
G1 X-5.678 Y16.385 E55.95379
G1 X-5.477 Y16.752 E55.97466
G1 X-5.35 Y17.152 E55.9956
G1 X-5.3 Y17.617 E56.01893
G1 X-5.3 Y62.383 E58.25232
G1 X-5.34 Y62.8 E58.27322
G1 X-5.458 Y63.202 E58.29412
G1 X-5.651 Y63.574 E58.31503
G1 X-5.944 Y63.939 E58.33838
G1 X-6.061 Y64.056 E58.34663
G1 X-6.385 Y64.322 E58.36755
G1 X-6.752 Y64.523 E58.38842
G1 X-7.152 Y64.65 E58.40936
G1 X-7.617 Y64.7 E58.43269
G1 X-92.383 Y64.7 E62.66169
G1 X-92.8 Y64.66 E62.68259
G1 X-93.202 Y64.542 E62.70349
G1 X-93.574 Y64.349 E62.7244
G1 X-93.939 Y64.056 E62.74775
G1 X-94.056 Y63.939 E62.756
G1 X-94.322 Y63.615 E62.77692
G1 X-94.523 Y63.248 E62.79779
G1 X-94.65 Y62.848 E62.81873
G1 X-94.7 Y62.383 E62.84206
G1 X-94.7 Y17.617 E65.07545
G1 X-94.66 Y17.2 E65.09635
G1 X-94.542 Y16.798 E65.11725
G1 X-94.349 Y16.426 E65.13816
G1 X-94.056 Y16.061 E65.16151
G1 X-93.939 Y15.944 E65.16977
G1 X-93.615 Y15.678 E65.19068
G1 X-93.248 Y15.477 E65.21156
G1 X-92.848 Y15.35 E65.23249
G1 X-92.383 Y15.3 E65.25583
G1 X-7.617 Y15.3 E69.48482
G0 F3000 X-7.617 Y15.7
G1 F1500 X-7.24 Y15.74 E69.50373
G1 X-6.88 Y15.858 E69.52263
G1 X-6.553 Y16.048 E69.5415
G1 X-6.344 Y16.227 E69.55523
G1 X-6.227 Y16.344 E69.56349
G1 X-5.989 Y16.639 E69.5824
G1 X-5.818 Y16.977 E69.60129
G1 X-5.721 Y17.343 E69.62018
G1 X-5.7 Y17.617 E69.63389
G1 X-5.7 Y62.383 E71.86728
G1 X-5.74 Y62.76 E71.88619
G1 X-5.858 Y63.12 E71.90509
G1 X-6.048 Y63.447 E71.92396
G1 X-6.227 Y63.656 E71.93769
G1 X-6.344 Y63.773 E71.94595
G1 X-6.639 Y64.011 E71.96486
G1 X-6.977 Y64.182 E71.98375
G1 X-7.343 Y64.279 E72.00264
G1 X-7.617 Y64.3 E72.01635
G1 X-92.383 Y64.3 E76.24535
G1 X-92.76 Y64.26 E76.26426
G1 X-93.12 Y64.142 E76.28316
G1 X-93.447 Y63.952 E76.30203
G1 X-93.656 Y63.773 E76.31576
G1 X-93.773 Y63.656 E76.32401
G1 X-94.011 Y63.361 E76.34292
G1 X-94.182 Y63.023 E76.36182
G1 X-94.279 Y62.657 E76.38071
G1 X-94.3 Y62.383 E76.39442
G1 X-94.3 Y17.617 E78.62781
G1 X-94.26 Y17.24 E78.64672
G1 X-94.142 Y16.88 E78.66562
G1 X-93.952 Y16.553 E78.68449
G1 X-93.773 Y16.344 E78.69822
G1 X-93.656 Y16.227 E78.70647
G1 X-93.361 Y15.989 E78.72538
G1 X-93.023 Y15.818 E78.74428
G1 X-92.657 Y15.721 E78.76317
G1 X-92.383 Y15.7 E78.77688
G1 X-7.617 Y15.7 E83.00587
G0 F3000 X-7.617 Y16.1
G1 F1500 X-7.285 Y16.14 E83.02256
G1 X-6.973 Y16.257 E83.03918
G1 X-6.627 Y16.51 E83.06057
G1 X-6.51 Y16.627 E83.06882
G1 X-6.304 Y16.89 E83.08549
G1 X-6.165 Y17.194 E83.10217
G1 X-6.1 Y17.617 E83.12352
G1 X-6.1 Y62.383 E85.3569
G1 X-6.14 Y62.715 E85.37358
G1 X-6.257 Y63.027 E85.39021
G1 X-6.51 Y63.373 E85.41159
G1 X-6.627 Y63.49 E85.41985
G1 X-6.89 Y63.696 E85.43652
G1 X-7.194 Y63.835 E85.45319
G1 X-7.617 Y63.9 E85.47454
G1 X-92.383 Y63.9 E89.70354
G1 X-92.715 Y63.86 E89.72022
G1 X-93.027 Y63.743 E89.73684
G1 X-93.373 Y63.49 E89.75823
G1 X-93.49 Y63.373 E89.76648
G1 X-93.696 Y63.11 E89.78315
G1 X-93.835 Y62.806 E89.79983
G1 X-93.9 Y62.383 E89.82118
G1 X-93.9 Y17.617 E92.05456
G1 X-93.86 Y17.285 E92.07125
G1 X-93.743 Y16.973 E92.08787
G1 X-93.49 Y16.627 E92.10926
G1 X-93.373 Y16.51 E92.11751
G1 X-93.11 Y16.304 E92.13418
G1 X-92.806 Y16.165 E92.15085
G1 X-92.383 Y16.1 E92.17221
G1 X-7.617 Y16.1 E96.4012
G0 F3000 X-7.617 Y16.5
G1 F1500 X-7.338 Y16.54 E96.41526
G1 X-7.081 Y16.656 E96.42933
G1 X-6.91 Y16.793 E96.44026
G1 X-6.793 Y16.91 E96.44851
G1 X-6.624 Y17.136 E96.46259
G1 X-6.524 Y17.4 E96.47668
G1 X-6.5 Y17.617 E96.48757
G1 X-6.5 Y62.383 E98.72095
G1 X-6.54 Y62.662 E98.73502
G1 X-6.656 Y62.919 E98.74908
G1 X-6.793 Y63.09 E98.76001
G1 X-6.91 Y63.207 E98.76827
G1 X-7.136 Y63.376 E98.78235
G1 X-7.4 Y63.476 E98.79643
G1 X-7.617 Y63.5 E98.80733
G1 X-92.383 Y63.5 E103.03632
G1 X-92.662 Y63.46 E103.05038
G1 X-92.919 Y63.344 E103.06445
G1 X-93.09 Y63.207 E103.07538
G1 X-93.207 Y63.09 E103.08363
G1 X-93.376 Y62.864 E103.09771
G1 X-93.476 Y62.6 E103.1118
G1 X-93.5 Y62.383 E103.12269
G1 X-93.5 Y17.617 E105.35607
G1 X-93.46 Y17.338 E105.37014
G1 X-93.344 Y17.081 E105.3842
G1 X-93.207 Y16.91 E105.39513
G1 X-93.09 Y16.793 E105.40339
G1 X-92.864 Y16.624 E105.41747
G1 X-92.6 Y16.524 E105.43155
G1 X-92.383 Y16.5 E105.44244
G1 X-7.617 Y16.5 E109.67144
G0 F3000 X-7.617 Y16.9
G1 F1500 X-7.402 Y16.94 E109.68235
G1 X-7.193 Y17.076 E109.69479
G1 X-7.076 Y17.193 E109.70304
G1 X-6.952 Y17.372 E109.71391
G1 X-6.9 Y17.617 E109.7264
G1 X-6.9 Y62.383 E111.95979
G1 X-6.94 Y62.598 E111.9707
G1 X-7.076 Y62.807 E111.98314
G1 X-7.193 Y62.924 E111.99139
G1 X-7.372 Y63.048 E112.00226
G1 X-7.617 Y63.1 E112.01475
G1 X-92.383 Y63.1 E116.24375
G1 X-92.598 Y63.06 E116.25466
G1 X-92.807 Y62.924 E116.2671
G1 X-92.924 Y62.807 E116.27535
G1 X-93.048 Y62.628 E116.28621
G1 X-93.1 Y62.383 E116.29871
G1 X-93.1 Y17.617 E118.5321
G1 X-93.06 Y17.402 E118.54301
G1 X-92.924 Y17.193 E118.55545
G1 X-92.807 Y17.076 E118.5637
G1 X-92.628 Y16.952 E118.57456
G1 X-92.383 Y16.9 E118.58706
G1 X-7.617 Y16.9 E122.81605
G0 F3000 X-7.617 Y17.3
G1 F1500 X-7.476 Y17.359 E122.82368
G1 X-7.359 Y17.476 E122.83193
G1 X-7.3 Y17.617 E122.83956
G1 X-7.3 Y62.383 E125.07294
G1 X-7.359 Y62.524 E125.08057
G1 X-7.476 Y62.641 E125.08882
G1 X-7.617 Y62.7 E125.09645
G1 X-92.383 Y62.7 E129.32544
G1 X-92.524 Y62.641 E129.33307
G1 X-92.641 Y62.524 E129.34132
G1 X-92.7 Y62.383 E129.34895
G1 X-92.7 Y17.617 E131.58233
G1 X-92.641 Y17.476 E131.58996
G1 X-92.524 Y17.359 E131.59821
G1 X-92.383 Y17.3 E131.60584
G1 X-7.617 Y17.3 E135.83483
G0 F3000 X-7.7 Y17.7
;TYPE:WALL-OUTER
G1 F1500 X-7.7 Y62.3 E138.05994
G1 X-92.3 Y62.3 E142.28065
G1 X-92.3 Y17.7 E144.50575
G1 X-7.7 Y17.7 E148.72646
G0 F3000 X-7.7 Y17.9
G0 X-8.1 Y18.1
;TYPE:WALL-INNER
G1 F1500 X-8.1 Y61.9 E150.91165
G1 X-91.9 Y61.9 E155.09245
G1 X-91.9 Y18.1 E157.27764
G1 X-8.1 Y18.1 E161.45844
G0 F3000 X-8.3 Y18.3
G0 X-8.693 Y18.459
;TYPE:SKIN
G1 F1500 X-8.459 Y18.693 E161.47495
G1 X-8.459 Y19.258 E161.50314
G1 X-9.258 Y18.459 E161.55951
G1 X-9.824 Y18.459 E161.58775
G1 X-8.459 Y19.824 E161.68406
G1 X-8.459 Y20.39 E161.7123
G1 X-10.39 Y18.459 E161.84854
G1 X-10.955 Y18.459 E161.87673
G1 X-8.459 Y20.955 E162.05283
G1 X-8.459 Y21.521 E162.08107
G1 X-11.521 Y18.459 E162.29711
G1 X-12.087 Y18.459 E162.32535
G1 X-8.459 Y22.087 E162.58132
G1 X-8.459 Y22.652 E162.60951
G1 X-12.652 Y18.459 E162.90535
G1 X-13.218 Y18.459 E162.93359
G1 X-8.459 Y23.218 E163.26936
G1 X-8.459 Y23.784 E163.2976
G1 X-13.784 Y18.459 E163.67331
G1 X-14.35 Y18.459 E163.70155
G1 X-8.459 Y24.349 E164.11715
G1 X-8.459 Y24.915 E164.14539
G1 X-14.915 Y18.459 E164.6009
G1 X-15.481 Y18.459 E164.62913
G1 X-8.459 Y25.481 E165.12457
G1 X-8.459 Y26.046 E165.15276
G1 X-16.047 Y18.459 E165.6881
G1 X-16.612 Y18.459 E165.71629
G1 X-8.459 Y26.612 E166.29153
G1 X-8.459 Y27.178 E166.31976
G1 X-17.178 Y18.459 E166.93494
G1 X-17.744 Y18.459 E166.96317
G1 X-8.459 Y27.744 E167.61828
G1 X-8.459 Y28.309 E167.64647
G1 X-18.309 Y18.459 E168.34144
G1 X-18.875 Y18.459 E168.36968
G1 X-8.459 Y28.875 E169.10458
G1 X-8.459 Y29.441 E169.13282
G1 X-19.441 Y18.459 E169.90766
G1 X-20.006 Y18.459 E169.93585
G1 X-8.459 Y30.006 E170.75055
G1 X-8.459 Y30.572 E170.77879
G1 X-20.572 Y18.459 E171.63343
G1 X-21.138 Y18.459 E171.66166
G1 X-8.459 Y31.138 E172.55624
G1 X-8.459 Y31.703 E172.58442
G1 X-21.703 Y18.459 E173.51886
G1 X-22.269 Y18.459 E173.5471
G1 X-8.459 Y32.269 E174.52147
G1 X-8.459 Y32.835 E174.54971
G1 X-22.835 Y18.459 E175.56401
G1 X-23.4 Y18.459 E175.5922
G1 X-8.459 Y33.4 E176.64637
G1 X-8.459 Y33.966 E176.6746
G1 X-23.966 Y18.459 E177.76871
G1 X-24.532 Y18.459 E177.79695
G1 X-8.459 Y34.532 E178.93098
G1 X-8.459 Y35.097 E178.95917
G1 X-25.098 Y18.459 E180.13311
G1 X-25.663 Y18.459 E180.16129
G1 X-8.459 Y35.663 E181.37513
G1 X-8.459 Y36.229 E181.40337
G1 X-26.229 Y18.459 E182.65714
G1 X-26.795 Y18.459 E182.68537
G1 X-8.459 Y36.795 E183.97908
G1 X-8.459 Y37.36 E184.00727
G1 X-27.36 Y18.459 E185.34083
G1 X-27.926 Y18.459 E185.36907
G1 X-8.459 Y37.926 E186.74257
G1 X-8.459 Y38.492 E186.77081
G1 X-28.492 Y18.459 E188.18425
G1 X-29.057 Y18.459 E188.21244
G1 X-8.459 Y39.057 E189.66574
G1 X-8.459 Y39.623 E189.69397
G1 X-29.623 Y18.459 E191.18721
G1 X-30.189 Y18.459 E191.21545
G1 X-8.459 Y40.189 E192.74862
G1 X-8.459 Y40.754 E192.7768
G1 X-30.754 Y18.459 E194.34984
G1 X-31.32 Y18.459 E194.37807
G1 X-8.459 Y41.32 E195.99104
G1 X-8.459 Y41.886 E196.01928
G1 X-31.886 Y18.459 E197.67218
G1 X-32.451 Y18.459 E197.70037
G1 X-8.459 Y42.451 E199.39313
G1 X-8.459 Y43.017 E199.42137
G1 X-33.017 Y18.459 E201.15407
G1 X-33.583 Y18.459 E201.18231
G1 X-8.459 Y43.583 E202.95494
G1 X-8.459 Y44.148 E202.98313
G1 X-34.149 Y18.459 E204.79566
G1 X-34.714 Y18.459 E204.82385
G1 X-8.459 Y44.714 E206.67628
G1 X-8.459 Y45.28 E206.70452
G1 X-35.28 Y18.459 E208.59689
G1 X-35.846 Y18.459 E208.62513
G1 X-8.459 Y45.845 E210.55739
G1 X-8.459 Y46.411 E210.58563
G1 X-36.411 Y18.459 E212.55779
G1 X-36.977 Y18.459 E212.58603
G1 X-8.459 Y46.977 E214.59813
G1 X-8.459 Y47.543 E214.62637
G1 X-37.543 Y18.459 E216.6784
G1 X-38.108 Y18.459 E216.70659
G1 X-8.459 Y48.108 E218.79849
G1 X-8.459 Y48.674 E218.82672
G1 X-38.674 Y18.459 E220.95856
G1 X-39.24 Y18.459 E220.98679
G1 X-8.459 Y49.24 E223.15856
G1 X-8.459 Y49.805 E223.18675
G1 X-39.805 Y18.459 E225.39838
G1 X-40.371 Y18.459 E225.42661
G1 X-8.459 Y50.371 E227.67818
G1 X-8.459 Y50.937 E227.70642
G1 X-40.937 Y18.459 E229.99791
G1 X-41.502 Y18.459 E230.0261
G1 X-8.459 Y51.502 E232.35746
G1 X-8.459 Y52.068 E232.3857
G1 X-42.068 Y18.459 E234.757
G1 X-42.634 Y18.459 E234.78524
G1 X-8.459 Y52.634 E237.19647
G1 X-8.459 Y53.199 E237.22466
G1 X-43.199 Y18.459 E239.67575
G1 X-43.765 Y18.459 E239.70399
G1 X-8.459 Y53.765 E242.19502
G1 X-8.459 Y54.331 E242.22326
G1 X-44.331 Y18.459 E244.75422
G1 X-44.897 Y18.459 E244.78246
G1 X-8.459 Y54.896 E247.35332
G1 X-8.459 Y55.462 E247.38156
G1 X-45.462 Y18.459 E249.99232
G1 X-46.028 Y18.459 E250.02056
G1 X-8.459 Y56.028 E252.67125
G1 X-8.459 Y56.593 E252.69944
G1 X-46.594 Y18.459 E255.39003
G1 X-47.159 Y18.459 E255.41822
G1 X-8.459 Y57.159 E258.14872
G1 X-8.459 Y57.725 E258.17695
G1 X-47.725 Y18.459 E260.94738
G1 X-48.291 Y18.459 E260.97562
G1 X-8.459 Y58.291 E263.78598
G1 X-8.459 Y58.856 E263.81417
G1 X-48.856 Y18.459 E266.6644
G1 X-49.422 Y18.459 E266.69264
G1 X-8.459 Y59.422 E269.5828
G1 X-8.459 Y59.988 E269.61103
G1 X-49.988 Y18.459 E272.54113
G1 X-50.553 Y18.459 E272.56932
