;FLAVOR:Marlin
;TIME:31346
;Filament used: 41.1187m
;Layer height: 0.2
;Generated with Cura_SteamEngine 1.2.3
M140 S60
M104 S230
M109 S230
G28
G1 Z50.00 F400
G92 E0
G1 F200 E3
G92 E0
M132 X Y Z A
M907 X100 Y100 Z50 A100
;LAYER_COUNT:200
;LAYER:0
M107
M204 S2000
G0 F3000 X-73.758 Y46.3 Z0.3
;TYPE:SKIRT
G1 F1500 X-74.068 Y46.287 E0.01548
G1 X-74.85 Y46.223 E0.05462
G1 X-75.424 Y46.132 E0.08362
G1 X-76.168 Y45.954 E0.12178
G1 X-76.73 Y45.772 E0.15126
G1 X-77.454 Y45.474 E0.19032
G1 X-77.989 Y45.203 E0.22024
G1 X-78.665 Y44.79 E0.25976
G1 X-79.141 Y44.446 E0.28906
G1 X-79.738 Y43.94 E0.3281
G1 X-80.171 Y43.508 E0.35862
G1 X-80.678 Y42.914 E0.39758
G1 X-81.024 Y42.439 E0.4269
G1 X-81.439 Y41.765 E0.46639
G1 X-81.712 Y41.232 E0.49626
G1 X-82.013 Y40.508 E0.53538
G1 X-82.199 Y39.935 E0.56544
G1 X-82.381 Y39.176 E0.60438
G1 X-82.473 Y38.602 E0.63338
G1 X-82.537 Y37.825 E0.67228
G1 X-82.55 Y37.513 E0.68785
G1 X-82.55 Y-37.511 E4.43082
G1 X-82.537 Y-37.822 E4.44635
G1 X-82.473 Y-38.601 E4.48534
G1 X-82.382 Y-39.174 E4.51429
G1 X-82.204 Y-39.918 E4.55245
G1 X-82.022 Y-40.48 E4.58193
G1 X-81.724 Y-41.204 E4.62099
G1 X-81.453 Y-41.739 E4.65091
G1 X-81.04 Y-42.415 E4.69043
G1 X-80.696 Y-42.891 E4.71973
G1 X-80.191 Y-43.487 E4.7587
G1 X-79.759 Y-43.92 E4.78922
G1 X-79.165 Y-44.427 E4.82818
G1 X-78.69 Y-44.773 E4.8575
G1 X-78.016 Y-45.188 E4.89699
G1 X-77.485 Y-45.46 E4.92675
G1 X-76.762 Y-45.761 E4.96582
G1 X-76.189 Y-45.948 E4.99589
G1 X-75.428 Y-46.131 E5.03494
G1 X-74.85 Y-46.223 E5.06414
G1 X-74.068 Y-46.287 E5.10329
G1 X-73.758 Y-46.3 E5.11877
G1 X78.633 Y-46.3 E12.72158
G1 X79.183 Y-46.26 E12.7491
G1 X79.721 Y-46.141 E12.77659
G1 X80.236 Y-45.945 E12.80408
G1 X80.717 Y-45.677 E12.83155
G1 X81.32 Y-45.187 E12.87031
G1 X81.437 Y-45.07 E12.87857
G1 X81.797 Y-44.653 E12.90605
G1 X82.094 Y-44.189 E12.93354
G1 X82.32 Y-43.686 E12.96105
G1 X82.471 Y-43.156 E12.98854
G1 X82.55 Y-42.383 E13.02731
G1 X82.55 Y42.383 E17.2563
G1 X82.51 Y42.933 E17.28381
G1 X82.391 Y43.471 E17.3113
G1 X82.195 Y43.986 E17.33879
G1 X81.927 Y44.467 E17.36626
G1 X81.437 Y45.07 E17.40503
G1 X81.32 Y45.187 E17.41328
G1 X80.903 Y45.547 E17.44077
G1 X80.439 Y45.844 E17.46825
G1 X79.936 Y46.07 E17.49576
G1 X79.406 Y46.221 E17.52326
G1 X78.633 Y46.3 E17.56202
G1 X-73.758 Y46.3 E25.16484
G0 F3000 X-73.758 Y45.9
G1 F1500 X-74.035 Y45.889 E25.17867
G1 X-74.817 Y45.825 E25.21782
G1 X-75.331 Y45.743 E25.24378
G1 X-76.075 Y45.565 E25.28195
G1 X-76.578 Y45.402 E25.30833
G1 X-77.302 Y45.104 E25.34739
G1 X-77.781 Y44.861 E25.37419
G1 X-78.457 Y44.448 E25.41371
G1 X-78.882 Y44.141 E25.43987
G1 X-79.479 Y43.635 E25.47891
G1 X-79.867 Y43.248 E25.50625
G1 X-80.374 Y42.654 E25.54521
G1 X-80.683 Y42.23 E25.57139
G1 X-81.098 Y41.556 E25.61088
G1 X-81.342 Y41.078 E25.63765
G1 X-81.643 Y40.354 E25.67677
G1 X-81.81 Y39.842 E25.70364
G1 X-81.992 Y39.083 E25.74258
G1 X-82.075 Y38.569 E25.76855
G1 X-82.139 Y37.792 E25.80745
G1 X-82.15 Y37.513 E25.82138
G1 X-82.15 Y-37.511 E29.56434
G1 X-82.139 Y-37.789 E29.57822
G1 X-82.075 Y-38.568 E29.61722
G1 X-81.993 Y-39.081 E29.64314
G1 X-81.815 Y-39.825 E29.6813
G1 X-81.652 Y-40.328 E29.70768
G1 X-81.354 Y-41.052 E29.74674
G1 X-81.111 Y-41.531 E29.77354
G1 X-80.698 Y-42.207 E29.81306
G1 X-80.391 Y-42.632 E29.83922
G1 X-79.886 Y-43.228 E29.87819
G1 X-79.499 Y-43.616 E29.90553
G1 X-78.905 Y-44.123 E29.94449
G1 X-78.481 Y-44.432 E29.97067
G1 X-77.807 Y-44.847 E30.01016
G1 X-77.331 Y-45.091 E30.03684
G1 X-76.608 Y-45.392 E30.07591
G1 X-76.096 Y-45.559 E30.10278
G1 X-75.335 Y-45.742 E30.14183
G1 X-74.817 Y-45.825 E30.168
G1 X-74.035 Y-45.889 E30.20715
G1 X-73.758 Y-45.9 E30.22098
G1 X78.633 Y-45.9 E37.8238
G1 X79.153 Y-45.86 E37.84982
G1 X79.66 Y-45.741 E37.8758
G1 X80.143 Y-45.546 E37.90178
G1 X80.591 Y-45.28 E37.92778
G1 X81.037 Y-44.904 E37.95688
G1 X81.154 Y-44.787 E37.96514
G1 X81.493 Y-44.391 E37.99114
G1 X81.768 Y-43.949 E38.01711
G1 X81.972 Y-43.469 E38.04313
G1 X82.1 Y-42.964 E38.06913
G1 X82.15 Y-42.383 E38.09822
G1 X82.15 Y42.383 E42.32721
G1 X82.11 Y42.903 E42.35323
G1 X81.991 Y43.41 E42.37921
G1 X81.796 Y43.893 E42.4052
G1 X81.53 Y44.341 E42.43119
G1 X81.154 Y44.787 E42.4603
G1 X81.037 Y44.904 E42.46855
G1 X80.641 Y45.243 E42.49456
G1 X80.199 Y45.518 E42.52053
G1 X79.719 Y45.722 E42.54655
G1 X79.214 Y45.85 E42.57254
G1 X78.633 Y45.9 E42.60163
G1 X-73.758 Y45.9 E50.20445
G0 F3000 X-73.758 Y45.5
G1 F1500 X-74.003 Y45.49 E50.21669
G1 X-74.785 Y45.426 E50.25583
G1 X-75.238 Y45.354 E50.27871
G1 X-75.982 Y45.176 E50.31688
G1 X-76.426 Y45.032 E50.34017
G1 X-77.15 Y44.734 E50.37923
G1 X-77.572 Y44.52 E50.40283
G1 X-78.248 Y44.107 E50.44236
G1 X-78.624 Y43.836 E50.46548
G1 X-79.221 Y43.33 E50.50452
G1 X-79.563 Y42.989 E50.52862
G1 X-80.07 Y42.395 E50.56758
G1 X-80.343 Y42.02 E50.59072
G1 X-80.758 Y41.346 E50.63021
G1 X-80.973 Y40.925 E50.65379
G1 X-81.274 Y40.201 E50.69291
G1 X-81.421 Y39.749 E50.71662
G1 X-81.603 Y38.99 E50.75556
G1 X-81.676 Y38.536 E50.77851
G1 X-81.74 Y37.759 E50.8174
G1 X-81.75 Y37.513 E50.82968
G1 X-81.75 Y-37.511 E54.57265
G1 X-81.74 Y-37.757 E54.58493
G1 X-81.676 Y-38.536 E54.62393
G1 X-81.604 Y-38.988 E54.64676
G1 X-81.426 Y-39.732 E54.68493
G1 X-81.282 Y-40.176 E54.70821
G1 X-80.984 Y-40.9 E54.74727
G1 X-80.77 Y-41.322 E54.77088
G1 X-80.357 Y-41.998 E54.8104
G1 X-80.086 Y-42.373 E54.83348
G1 X-79.581 Y-42.969 E54.87246
G1 X-79.24 Y-43.312 E54.89659
G1 X-78.646 Y-43.819 E54.93555
G1 X-78.271 Y-44.092 E54.95869
G1 X-77.597 Y-44.507 E54.99818
G1 X-77.177 Y-44.722 E55.02172
G1 X-76.454 Y-45.023 E55.06079
G1 X-76.002 Y-45.17 E55.0845
G1 X-75.241 Y-45.353 E55.12355
G1 X-74.785 Y-45.426 E55.14659
G1 X-74.003 Y-45.49 E55.18574
G1 X-73.758 Y-45.5 E55.19797
G1 X78.633 Y-45.5 E62.80079
G1 X79.121 Y-45.46 E62.82522
G1 X79.596 Y-45.341 E62.84965
G1 X80.045 Y-45.147 E62.87405
G1 X80.457 Y-44.882 E62.89849
G1 X80.754 Y-44.621 E62.91821
G1 X80.871 Y-44.504 E62.92647
G1 X81.188 Y-44.131 E62.95089
G1 X81.44 Y-43.711 E62.97533
G1 X81.62 Y-43.256 E62.99974
G1 X81.724 Y-42.778 E63.02414
G1 X81.75 Y-42.383 E63.04389
G1 X81.75 Y42.383 E67.27289
G1 X81.71 Y42.871 E67.29731
G1 X81.591 Y43.346 E67.32175
G1 X81.397 Y43.795 E67.34615
G1 X81.132 Y44.207 E67.37059
G1 X80.871 Y44.504 E67.39031
G1 X80.754 Y44.621 E67.39857
G1 X80.381 Y44.938 E67.42299
G1 X79.961 Y45.19 E67.44743
G1 X79.506 Y45.37 E67.47184
G1 X79.028 Y45.474 E67.49624
G1 X78.633 Y45.5 E67.51599
G1 X-73.758 Y45.5 E75.11881
G0 F3000 X-73.758 Y45.1
G1 F1500 X-73.97 Y45.091 E75.1294
G1 X-74.752 Y45.027 E75.16854
G1 X-75.145 Y44.965 E75.18839
G1 X-75.889 Y44.787 E75.22656
G1 X-76.274 Y44.662 E75.24675
G1 X-76.998 Y44.364 E75.28581
G1 X-77.364 Y44.179 E75.30627
G1 X-78.04 Y43.766 E75.34579
G1 X-78.365 Y43.53 E75.36583
G1 X-78.962 Y43.024 E75.40487
G1 X-79.259 Y42.729 E75.42576
G1 X-79.766 Y42.135 E75.46472
G1 X-80.002 Y41.81 E75.48476
G1 X-80.417 Y41.136 E75.52425
G1 X-80.604 Y40.771 E75.54471
G1 X-80.905 Y40.047 E75.58383
G1 X-81.032 Y39.655 E75.60438
G1 X-81.214 Y38.896 E75.64332
G1 X-81.277 Y38.503 E75.66318
G1 X-81.341 Y37.726 E75.70208
G1 X-81.35 Y37.513 E75.71271
G1 X-81.35 Y-37.511 E79.45568
G1 X-81.341 Y-37.724 E79.46631
G1 X-81.277 Y-38.503 E79.50531
G1 X-81.215 Y-38.895 E79.52511
G1 X-81.037 Y-39.639 E79.56327
G1 X-80.912 Y-40.024 E79.58347
G1 X-80.614 Y-40.748 E79.62253
G1 X-80.429 Y-41.114 E79.64299
G1 X-80.016 Y-41.79 E79.68251
G1 X-79.781 Y-42.115 E79.70252
G1 X-79.276 Y-42.711 E79.74149
G1 X-78.98 Y-43.008 E79.76241
G1 X-78.386 Y-43.515 E79.80137
G1 X-78.061 Y-43.751 E79.82141
G1 X-77.387 Y-44.166 E79.8609
G1 X-77.023 Y-44.352 E79.8813
G1 X-76.3 Y-44.653 E79.92037
G1 X-75.909 Y-44.781 E79.94089
G1 X-75.148 Y-44.964 E79.97994
G1 X-74.752 Y-45.027 E79.99995
G1 X-73.97 Y-45.091 E80.03909
G1 X-73.758 Y-45.1 E80.04968
G1 X78.633 Y-45.1 E87.6525
G1 X79.087 Y-45.06 E87.67523
G1 X79.527 Y-44.942 E87.69796
G1 X79.939 Y-44.748 E87.72068
G1 X80.471 Y-44.338 E87.75419
G1 X80.588 Y-44.221 E87.76244
G1 X80.881 Y-43.872 E87.78518
G1 X81.108 Y-43.477 E87.80791
G1 X81.263 Y-43.049 E87.83062
G1 X81.35 Y-42.383 E87.86413
G1 X81.35 Y42.383 E92.09312
G1 X81.31 Y42.837 E92.11586
G1 X81.192 Y43.277 E92.13859
G1 X80.998 Y43.689 E92.1613
G1 X80.588 Y44.221 E92.19481
G1 X80.471 Y44.338 E92.20307
G1 X80.122 Y44.631 E92.2258
G1 X79.727 Y44.858 E92.24853
G1 X79.299 Y45.013 E92.27124
G1 X78.633 Y45.1 E92.30475
G1 X-73.758 Y45.1 E99.90757
G0 F3000 X-73.758 Y44.7
G1 F1500 X-73.937 Y44.693 E99.91651
G1 X-74.719 Y44.629 E99.95565
G1 X-75.052 Y44.576 E99.97247
G1 X-75.796 Y44.398 E100.01064
G1 X-76.121 Y44.292 E100.02769
G1 X-76.845 Y43.994 E100.06675
G1 X-77.155 Y43.837 E100.08409
G1 X-77.831 Y43.424 E100.12361
G1 X-78.106 Y43.225 E100.14055
G1 X-78.703 Y42.719 E100.17959
G1 X-78.954 Y42.469 E100.19727
G1 X-79.461 Y41.875 E100.23623
G1 X-79.661 Y41.6 E100.25319
G1 X-80.076 Y40.926 E100.29268
G1 X-80.234 Y40.618 E100.30995
G1 X-80.535 Y39.894 E100.34907
G1 X-80.643 Y39.562 E100.36649
G1 X-80.825 Y38.803 E100.40543
G1 X-80.879 Y38.471 E100.42221
G1 X-80.943 Y37.694 E100.4611
G1 X-80.95 Y37.513 E100.47014
G1 X-80.95 Y-37.511 E104.2131
G1 X-80.943 Y-37.691 E104.22209
G1 X-80.879 Y-38.47 E104.26109
G1 X-80.826 Y-38.802 E104.27786
G1 X-80.648 Y-39.546 E104.31603
G1 X-80.542 Y-39.871 E104.33308
G1 X-80.244 Y-40.595 E104.37214
G1 X-80.087 Y-40.905 E104.38948
G1 X-79.674 Y-41.581 E104.429
G1 X-79.475 Y-41.856 E104.44593
G1 X-78.97 Y-42.452 E104.48491
G1 X-78.72 Y-42.703 E104.50258
G1 X-78.126 Y-43.21 E104.54154
G1 X-77.851 Y-43.41 E104.55851
G1 X-77.177 Y-43.825 E104.598
G1 X-76.87 Y-43.983 E104.61522
G1 X-76.147 Y-44.284 E104.65429
G1 X-75.815 Y-44.392 E104.67171
G1 X-75.054 Y-44.575 E104.71076
G1 X-74.719 Y-44.629 E104.72769
G1 X-73.937 Y-44.693 E104.76683
G1 X-73.758 Y-44.7 E104.77577
G1 X78.633 Y-44.7 E112.37859
G1 X79.05 Y-44.66 E112.39949
G1 X79.452 Y-44.542 E112.42039
G1 X79.824 Y-44.349 E112.4413
G1 X80.189 Y-44.056 E112.46465
G1 X80.306 Y-43.939 E112.47291
G1 X80.572 Y-43.615 E112.49382
G1 X80.773 Y-43.248 E112.5147
G1 X80.9 Y-42.848 E112.53563
G1 X80.95 Y-42.383 E112.55897
G1 X80.95 Y42.383 E116.78796
G1 X80.91 Y42.8 E116.80886
G1 X80.792 Y43.202 E116.82976
G1 X80.599 Y43.574 E116.85067
G1 X80.306 Y43.939 E116.87402
G1 X80.189 Y44.056 E116.88228
G1 X79.865 Y44.322 E116.90319
G1 X79.498 Y44.523 E116.92407
G1 X79.098 Y44.65 E116.945
G1 X78.633 Y44.7 E116.96834
G1 X-73.758 Y44.7 E124.57115
G0 F3000 X-73.758 Y44.3
G1 F1500 X-73.905 Y44.294 E124.57849
G1 X-74.687 Y44.23 E124.61764
G1 X-74.959 Y44.187 E124.63138
G1 X-75.703 Y44.009 E124.66954
G1 X-75.969 Y43.923 E124.68349
G1 X-76.693 Y43.625 E124.72255
G1 X-76.946 Y43.496 E124.73672
G1 X-77.622 Y43.083 E124.77624
G1 X-77.848 Y42.92 E124.79014
G1 X-78.445 Y42.414 E124.82919
G1 X-78.65 Y42.21 E124.84361
G1 X-79.157 Y41.616 E124.88258
G1 X-79.321 Y41.391 E124.89647
G1 X-79.736 Y40.717 E124.93596
G1 X-79.865 Y40.464 E124.95012
G1 X-80.166 Y39.74 E124.98924
G1 X-80.254 Y39.469 E125.00346
G1 X-80.436 Y38.71 E125.0424
G1 X-80.48 Y38.438 E125.05614
G1 X-80.544 Y37.661 E125.09504
G1 X-80.55 Y37.513 E125.10243
G1 X-80.55 Y-37.511 E128.84539
G1 X-80.544 Y-37.658 E128.85273
G1 X-80.48 Y-38.437 E128.89173
G1 X-80.437 Y-38.709 E128.90547
G1 X-80.259 Y-39.453 E128.94363
G1 X-80.173 Y-39.719 E128.95758
G1 X-79.875 Y-40.443 E128.99664
G1 X-79.746 Y-40.696 E129.01081
G1 X-79.333 Y-41.372 E129.05033
G1 X-79.17 Y-41.598 E129.06423
G1 X-78.665 Y-42.194 E129.10321
G1 X-78.461 Y-42.399 E129.11763
G1 X-77.867 Y-42.906 E129.1566
G1 X-77.642 Y-43.07 E129.17049
G1 X-76.968 Y-43.485 E129.20998
G1 X-76.716 Y-43.614 E129.2241
G1 X-75.993 Y-43.915 E129.26317
G1 X-75.722 Y-44.003 E129.27739
G1 X-74.961 Y-44.186 E129.31644
G1 X-74.687 Y-44.23 E129.33028
G1 X-73.905 Y-44.294 E129.36942
G1 X-73.758 Y-44.3 E129.37676
G1 X78.633 Y-44.3 E136.97958
G1 X79.01 Y-44.26 E136.9985
G1 X79.37 Y-44.142 E137.0174
G1 X79.697 Y-43.952 E137.03627
G1 X79.906 Y-43.773 E137.04999
G1 X80.023 Y-43.656 E137.05825
G1 X80.261 Y-43.361 E137.07716
G1 X80.432 Y-43.023 E137.09606
G1 X80.529 Y-42.657 E137.11495
G1 X80.55 Y-42.383 E137.12866
G1 X80.55 Y42.383 E141.35765
G1 X80.51 Y42.76 E141.37656
G1 X80.392 Y43.12 E141.39547
G1 X80.202 Y43.447 E141.41433
G1 X80.023 Y43.656 E141.42806
G1 X79.906 Y43.773 E141.43632
G1 X79.611 Y44.011 E141.45523
G1 X79.273 Y44.182 E141.47413
G1 X78.907 Y44.279 E141.49302
G1 X78.633 Y44.3 E141.50673
G1 X-73.758 Y44.3 E149.10954
G0 F3000 X-73.872 Y43.895
G1 F1500 X-74.654 Y43.831 E149.14869
G1 X-74.866 Y43.798 E149.15939
G1 X-75.61 Y43.62 E149.19756
G1 X-75.817 Y43.553 E149.20841
G1 X-76.541 Y43.255 E149.24747
G1 X-76.738 Y43.155 E149.2585
G1 X-77.414 Y42.742 E149.29802
G1 X-77.589 Y42.615 E149.30881
G1 X-78.186 Y42.109 E149.34785
G1 X-78.346 Y41.95 E149.3591
G1 X-78.853 Y41.356 E149.39806
G1 X-78.98 Y41.181 E149.40885
G1 X-79.395 Y40.507 E149.44834
G1 X-79.496 Y40.31 E149.45939
G1 X-79.797 Y39.586 E149.4985
G1 X-79.865 Y39.375 E149.50956
G1 X-80.047 Y38.616 E149.5485
G1 X-80.081 Y38.405 E149.55917
G1 X-80.145 Y37.628 E149.59806
G1 X-80.15 Y37.513 E149.6038
G1 X-80.15 Y-37.511 E153.34677
G1 X-80.145 Y-37.626 E153.35251
G1 X-80.081 Y-38.405 E153.39151
G1 X-80.048 Y-38.616 E153.40216
G1 X-79.87 Y-39.36 E153.44033
G1 X-79.803 Y-39.567 E153.45118
G1 X-79.505 Y-40.291 E153.49024
G1 X-79.405 Y-40.488 E153.50126
G1 X-78.992 Y-41.164 E153.54079
G1 X-78.865 Y-41.339 E153.55157
G1 X-78.36 Y-41.935 E153.59055
G1 X-78.201 Y-42.095 E153.6018
G1 X-77.607 Y-42.602 E153.64076
G1 X-77.432 Y-42.729 E153.65155
G1 X-76.758 Y-43.144 E153.69104
G1 X-76.562 Y-43.244 E153.70202
G1 X-75.839 Y-43.545 E153.74109
G1 X-75.628 Y-43.614 E153.75216
G1 X-74.867 Y-43.797 E153.79121
G1 X-74.654 Y-43.831 E153.80197
G1 X-73.872 Y-43.895 E153.84112
G1 X-73.758 Y-43.9 E153.84681
G1 X78.633 Y-43.9 E161.44963
G1 X78.965 Y-43.86 E161.46631
G1 X79.277 Y-43.743 E161.48294
G1 X79.623 Y-43.49 E161.50432
G1 X79.74 Y-43.373 E161.51258
G1 X79.946 Y-43.11 E161.52924
G1 X80.085 Y-42.806 E161.54592
G1 X80.15 Y-42.383 E161.56727
G1 X80.15 Y42.383 E165.79626
G1 X80.11 Y42.715 E165.81295
G1 X79.993 Y43.027 E165.82957
G1 X79.74 Y43.373 E165.85096
G1 X79.623 Y43.49 E165.85921
G1 X79.36 Y43.696 E165.87588
G1 X79.056 Y43.835 E165.89255
G1 X78.633 Y43.9 E165.91391
G1 X-73.758 Y43.9 E173.51672
G1 X-73.872 Y43.895 E173.52242
G0 F3000 X-73.758 Y43.5
G1 F1500 X-73.84 Y43.497 E173.52651
G1 X-74.622 Y43.433 E173.56565
G1 X-74.773 Y43.409 E173.57328
G1 X-75.517 Y43.231 E173.61145
G1 X-75.665 Y43.183 E173.61921
G1 X-76.389 Y42.885 E173.65827
G1 X-76.529 Y42.813 E173.66613
G1 X-77.205 Y42.4 E173.70565
G1 X-77.331 Y42.31 E173.71337
G1 X-77.928 Y41.804 E173.75242
G1 X-78.042 Y41.69 E173.76046
G1 X-78.549 Y41.096 E173.79942
G1 X-78.64 Y40.971 E173.80713
G1 X-79.055 Y40.297 E173.84662
G1 X-79.126 Y40.157 E173.85446
G1 X-79.427 Y39.433 E173.89357
G1 X-79.476 Y39.282 E173.90149
G1 X-79.658 Y38.523 E173.94043
G1 X-79.683 Y38.372 E173.94807
G1 X-79.747 Y37.595 E173.98697
G1 X-79.75 Y37.513 E173.99106
G1 X-79.75 Y-37.511 E177.73402
G1 X-79.747 Y-37.593 E177.73812
G1 X-79.683 Y-38.372 E177.77711
G1 X-79.659 Y-38.523 E177.78474
G1 X-79.481 Y-39.267 E177.8229
G1 X-79.433 Y-39.415 E177.83067
G1 X-79.135 Y-40.139 E177.86973
G1 X-79.063 Y-40.279 E177.87758
G1 X-78.65 Y-40.955 E177.9171
G1 X-78.56 Y-41.08 E177.92479
G1 X-78.055 Y-41.676 E177.96376
G1 X-77.941 Y-41.791 E177.97184
G1 X-77.347 Y-42.298 E178.0108
G1 X-77.222 Y-42.389 E178.01852
G1 X-76.548 Y-42.804 E178.058
G1 X-76.408 Y-42.875 E178.06584
G1 X-75.685 Y-43.176 E178.10491
G1 X-75.535 Y-43.225 E178.11278
G1 X-74.774 Y-43.408 E178.15183
G1 X-74.622 Y-43.433 E178.15951
G1 X-73.84 Y-43.497 E178.19866
G1 X-73.758 Y-43.5 E178.20275
G1 X78.633 Y-43.5 E185.80557
G1 X78.912 Y-43.46 E185.81963
G1 X79.169 Y-43.344 E185.8337
G1 X79.34 Y-43.207 E185.84463
G1 X79.457 Y-43.09 E185.85289
G1 X79.626 Y-42.864 E185.86697
G1 X79.726 Y-42.6 E185.88105
G1 X79.75 Y-42.383 E185.89194
G1 X79.75 Y42.383 E190.12093
G1 X79.71 Y42.662 E190.135
G1 X79.594 Y42.919 E190.14906
G1 X79.457 Y43.09 E190.16
G1 X79.34 Y43.207 E190.16825
G1 X79.114 Y43.376 E190.18233
G1 X78.85 Y43.476 E190.19641
G1 X78.633 Y43.5 E190.20731
