;FLAVOR:Marlin
;TIME:30138
;Filament used: 40.058m
;Layer height: 0.2
;Generated with Cura_SteamEngine 1.2.3
M140 S60
M104 S230
M109 S230
G28
G1 Z50.00 F400
G92 E0
G1 F200 E3
G92 E0
M132 X Y Z A
M907 X100 Y100 Z50 A100
;LAYER_COUNT:200
;LAYER:0
M107
M204 S2000
G0 F3000 X-73.758 Y50.3 Z0.3
;TYPE:SKIRT
G1 F1500 X-74.394 Y50.274 E0.03176
G1 X-75.176 Y50.21 E0.0709
G1 X-75.959 Y50.106 E0.11031
G1 X-76.355 Y50.022 E0.1305
G1 X-77.099 Y49.844 E0.16867
G1 X-77.857 Y49.622 E0.20808
G1 X-78.253 Y49.471 E0.22922
G1 X-78.977 Y49.173 E0.26828
G1 X-79.691 Y48.836 E0.30767
G1 X-80.075 Y48.616 E0.32975
G1 X-80.751 Y48.203 E0.36927
G1 X-81.403 Y47.758 E0.40865
G1 X-81.727 Y47.497 E0.42941
G1 X-82.324 Y46.991 E0.46845
G1 X-82.9 Y46.451 E0.50784
G1 X-83.214 Y46.105 E0.53116
G1 X-83.721 Y45.511 E0.57012
G1 X-84.202 Y44.885 E0.6095
G1 X-84.43 Y44.537 E0.63026
G1 X-84.845 Y43.863 E0.66975
G1 X-85.224 Y43.17 E0.70915
G1 X-85.405 Y42.767 E0.7312
G1 X-85.706 Y42.043 E0.77031
G1 X-85.972 Y41.3 E0.80969
G1 X-86.089 Y40.868 E0.83201
G1 X-86.271 Y40.109 E0.87095
G1 X-86.416 Y39.333 E0.91034
G1 X-86.46 Y38.93 E0.93056
G1 X-86.524 Y38.153 E0.96946
G1 X-86.55 Y37.513 E1.00142
G1 X-86.55 Y-37.511 E4.74438
G1 X-86.524 Y-38.15 E4.77629
G1 X-86.46 Y-38.929 E4.81528
G1 X-86.355 Y-39.711 E4.85465
G1 X-86.272 Y-40.105 E4.87473
G1 X-86.094 Y-40.849 E4.9129
G1 X-85.872 Y-41.607 E4.9523
G1 X-85.721 Y-42.003 E4.97345
G1 X-85.423 Y-42.727 E5.01251
G1 X-85.086 Y-43.441 E5.0519
G1 X-84.866 Y-43.825 E5.07398
G1 X-84.453 Y-44.501 E5.1135
G1 X-84.008 Y-45.153 E5.15288
G1 X-83.748 Y-45.476 E5.17357
G1 X-83.243 Y-46.072 E5.21254
G1 X-82.703 Y-46.648 E5.25193
G1 X-82.356 Y-46.963 E5.27531
G1 X-81.762 Y-47.47 E5.31428
G1 X-81.136 Y-47.951 E5.35366
G1 X-80.788 Y-48.179 E5.37442
G1 X-80.114 Y-48.594 E5.41391
G1 X-79.421 Y-48.973 E5.45331
G1 X-79.022 Y-49.153 E5.47515
G1 X-78.299 Y-49.454 E5.51422
G1 X-77.555 Y-49.72 E5.55364
G1 X-77.125 Y-49.837 E5.57588
G1 X-76.364 Y-50.02 E5.61492
G1 X-75.588 Y-50.165 E5.65431
G1 X-75.176 Y-50.21 E5.67499
G1 X-74.394 Y-50.274 E5.71413
G1 X-73.758 Y-50.3 E5.74589
G1 X78.633 Y-50.3 E13.34871
G1 X79.422 Y-50.26 E13.38812
G1 X80.202 Y-50.141 E13.42748
G1 X80.967 Y-49.943 E13.46691
G1 X81.707 Y-49.669 E13.50628
G1 X82.416 Y-49.321 E13.54568
G1 X83.087 Y-48.903 E13.58512
G1 X83.711 Y-48.42 E13.62449
G1 X84.148 Y-48.015 E13.65421
G1 X84.265 Y-47.898 E13.66247
G1 X84.795 Y-47.312 E13.70189
G1 X85.262 Y-46.676 E13.74125
G1 X85.663 Y-45.996 E13.78064
G1 X85.993 Y-45.278 E13.82006
G1 X86.248 Y-44.531 E13.85944
G1 X86.427 Y-43.762 E13.89883
G1 X86.527 Y-42.978 E13.93826
G1 X86.55 Y-42.383 E13.96797
G1 X86.55 Y42.383 E18.19696
G1 X86.51 Y43.172 E18.23638
G1 X86.391 Y43.952 E18.27574
G1 X86.193 Y44.717 E18.31516
G1 X85.919 Y45.457 E18.35453
G1 X85.571 Y46.166 E18.39394
G1 X85.153 Y46.837 E18.43338
G1 X84.67 Y47.461 E18.47274
G1 X84.265 Y47.898 E18.50247
G1 X84.148 Y48.015 E18.51073
G1 X83.562 Y48.545 E18.55014
G1 X82.926 Y49.012 E18.58951
G1 X82.246 Y49.413 E18.62889
G1 X81.528 Y49.743 E18.66832
G1 X80.781 Y49.998 E18.7077
G1 X80.012 Y50.177 E18.74709
G1 X79.228 Y50.277 E18.78652
G1 X78.633 Y50.3 E18.81623
G1 X-73.758 Y50.3 E26.41904
G0 F3000 X-73.758 Y49.9
G1 F1500 X-74.362 Y49.875 E26.4492
G1 X-75.144 Y49.811 E26.48835
G1 X-76.262 Y49.633 E26.54483
G1 X-77.006 Y49.455 E26.58299
G1 X-78.101 Y49.101 E26.64041
G1 X-78.825 Y48.803 E26.67947
G1 X-79.52 Y48.474 E26.71783
G1 X-79.866 Y48.275 E26.73774
G1 X-80.542 Y47.862 E26.77727
G1 X-81.469 Y47.192 E26.83433
G1 X-82.066 Y46.686 E26.87337
G1 X-82.626 Y46.159 E26.91174
G1 X-82.91 Y45.845 E26.93286
G1 X-83.417 Y45.251 E26.97182
G1 X-84.089 Y44.327 E27.02882
G1 X-84.504 Y43.653 E27.06831
G1 X-84.873 Y42.978 E27.10669
G1 X-85.036 Y42.614 E27.12659
G1 X-85.337 Y41.89 E27.16571
G1 X-85.595 Y41.165 E27.2041
G1 X-85.7 Y40.775 E27.22425
G1 X-85.882 Y40.016 E27.26319
G1 X-86.061 Y38.897 E27.31973
G1 X-86.125 Y38.12 E27.35862
G1 X-86.15 Y37.513 E27.38893
G1 X-86.15 Y-37.511 E31.13189
G1 X-86.125 Y-38.117 E31.16215
G1 X-86.061 Y-38.896 E31.20115
G1 X-85.883 Y-40.012 E31.25753
G1 X-85.705 Y-40.756 E31.2957
G1 X-85.351 Y-41.851 E31.35311
G1 X-85.053 Y-42.575 E31.39217
G1 X-84.724 Y-43.27 E31.43053
G1 X-84.525 Y-43.616 E31.45045
G1 X-84.112 Y-44.292 E31.48997
G1 X-83.443 Y-45.218 E31.54696
G1 X-82.938 Y-45.814 E31.58593
G1 X-82.411 Y-46.374 E31.6243
G1 X-82.096 Y-46.659 E31.64549
G1 X-81.502 Y-47.166 E31.68445
G1 X-80.578 Y-47.838 E31.74145
G1 X-79.904 Y-48.253 E31.78094
G1 X-79.229 Y-48.622 E31.81932
G1 X-78.868 Y-48.784 E31.83906
G1 X-78.145 Y-49.085 E31.87814
G1 X-77.421 Y-49.343 E31.91648
G1 X-77.031 Y-49.448 E31.93663
G1 X-76.27 Y-49.631 E31.97568
G1 X-75.144 Y-49.811 E32.03257
G1 X-74.362 Y-49.875 E32.07171
G1 X-73.758 Y-49.9 E32.10187
G1 X78.633 Y-49.9 E39.70469
G1 X79.401 Y-49.86 E39.74306
G1 X80.161 Y-49.741 E39.78144
G1 X80.904 Y-49.543 E39.8198
G1 X81.623 Y-49.269 E39.85819
G1 X82.309 Y-48.922 E39.89654
G1 X82.956 Y-48.506 E39.93492
G1 X83.556 Y-48.025 E39.97328
G1 X83.866 Y-47.733 E39.99453
G1 X83.983 Y-47.616 E40.00278
G1 X84.497 Y-47.044 E40.04115
G1 X84.95 Y-46.422 E40.07954
G1 X85.336 Y-45.757 E40.1179
G1 X85.651 Y-45.055 E40.15629
G1 X85.891 Y-44.324 E40.19467
G1 X86.054 Y-43.573 E40.23301
G1 X86.138 Y-42.808 E40.27141
G1 X86.15 Y-42.383 E40.29262
G1 X86.15 Y42.383 E44.52161
G1 X86.11 Y43.151 E44.55998
G1 X85.991 Y43.911 E44.59836
G1 X85.793 Y44.654 E44.63672
G1 X85.519 Y45.373 E44.67511
G1 X85.172 Y46.059 E44.71346
G1 X84.756 Y46.706 E44.75184
G1 X84.275 Y47.306 E44.7902
G1 X83.983 Y47.616 E44.81145
G1 X83.866 Y47.733 E44.8197
G1 X83.294 Y48.247 E44.85807
G1 X82.672 Y48.7 E44.89646
G1 X82.007 Y49.086 E44.93482
G1 X81.305 Y49.401 E44.97321
G1 X80.574 Y49.641 E45.01159
G1 X79.823 Y49.804 E45.04993
G1 X79.058 Y49.888 E45.08833
G1 X78.633 Y49.9 E45.10954
G1 X-73.758 Y49.9 E52.71236
G0 F3000 X-73.758 Y49.5
G1 F1500 X-74.329 Y49.477 E52.74087
G1 X-75.111 Y49.413 E52.78001
G1 X-76.169 Y49.244 E52.83347
G1 X-76.913 Y49.066 E52.87163
G1 X-77.948 Y48.731 E52.92591
G1 X-78.672 Y48.433 E52.96497
G1 X-79.657 Y47.933 E53.02008
G1 X-80.333 Y47.52 E53.0596
G1 X-81.21 Y46.887 E53.11356
G1 X-81.807 Y46.381 E53.1526
G1 X-82.351 Y45.867 E53.18994
G1 X-82.605 Y45.585 E53.20888
G1 X-83.112 Y44.991 E53.24784
G1 X-83.749 Y44.117 E53.30179
G1 X-84.164 Y43.443 E53.34128
G1 X-84.667 Y42.46 E53.39637
G1 X-84.968 Y41.736 E53.43549
G1 X-85.311 Y40.681 E53.49084
G1 X-85.493 Y39.922 E53.52978
G1 X-85.662 Y38.865 E53.58318
G1 X-85.726 Y38.088 E53.62208
G1 X-85.75 Y37.513 E53.65079
G1 X-85.75 Y-37.511 E57.39375
G1 X-85.726 Y-38.084 E57.42236
G1 X-85.662 Y-38.863 E57.46136
G1 X-85.494 Y-39.919 E57.5147
G1 X-85.316 Y-40.663 E57.55287
G1 X-84.981 Y-41.698 E57.60714
G1 X-84.683 Y-42.422 E57.64621
G1 X-84.183 Y-43.407 E57.70132
G1 X-83.77 Y-44.083 E57.74084
G1 X-83.138 Y-44.959 E57.79473
G1 X-82.633 Y-45.555 E57.8337
G1 X-82.119 Y-46.099 E57.87104
G1 X-81.836 Y-46.354 E57.89005
G1 X-81.242 Y-46.861 E57.92901
G1 X-80.368 Y-47.498 E57.98296
G1 X-79.694 Y-47.913 E58.02245
G1 X-78.714 Y-48.414 E58.07736
G1 X-77.991 Y-48.715 E58.11644
G1 X-76.938 Y-49.059 E58.1717
G1 X-76.177 Y-49.242 E58.21075
G1 X-75.111 Y-49.413 E58.26461
G1 X-74.329 Y-49.477 E58.30376
G1 X-73.758 Y-49.5 E58.33227
G1 X78.633 Y-49.5 E65.93509
G1 X79.38 Y-49.46 E65.97241
G1 X80.118 Y-49.341 E66.0097
G1 X80.84 Y-49.143 E66.04705
G1 X81.536 Y-48.87 E66.08435
G1 X82.199 Y-48.523 E66.12169
G1 X82.822 Y-48.108 E66.15903
G1 X83.583 Y-47.45 E66.20922
G1 X83.7 Y-47.333 E66.21748
G1 X84.2 Y-46.776 E66.25482
G1 X84.637 Y-46.17 E66.2921
G1 X85.008 Y-45.52 E66.32943
G1 X85.307 Y-44.834 E66.36677
G1 X85.531 Y-44.12 E66.4041
G1 X85.678 Y-43.387 E66.4414
G1 X85.75 Y-42.383 E66.49162
G1 X85.75 Y42.383 E70.72061
G1 X85.71 Y43.13 E70.75793
G1 X85.591 Y43.868 E70.79523
G1 X85.393 Y44.59 E70.83258
G1 X85.12 Y45.286 E70.86988
G1 X84.773 Y45.949 E70.90721
G1 X84.358 Y46.572 E70.94456
G1 X83.7 Y47.333 E70.99475
G1 X83.583 Y47.45 E71.003
G1 X83.026 Y47.95 E71.04035
G1 X82.42 Y48.387 E71.07762
G1 X81.77 Y48.758 E71.11496
G1 X81.084 Y49.057 E71.15229
G1 X80.37 Y49.281 E71.18963
G1 X79.637 Y49.428 E71.22692
G1 X78.633 Y49.5 E71.27714
G1 X-73.758 Y49.5 E78.87996
G0 F3000 X-73.758 Y49.1
G1 F1500 X-74.296 Y49.078 E78.90682
G1 X-75.078 Y49.014 E78.94597
G1 X-76.076 Y48.855 E78.99639
G1 X-76.82 Y48.677 E79.03455
G1 X-77.796 Y48.361 E79.08573
G1 X-78.52 Y48.063 E79.12479
G1 X-79.449 Y47.592 E79.17676
G1 X-80.125 Y47.179 E79.21628
G1 X-80.951 Y46.582 E79.26713
G1 X-81.548 Y46.076 E79.30617
G1 X-82.301 Y45.326 E79.35919
G1 X-82.808 Y44.732 E79.39815
G1 X-83.408 Y43.907 E79.44905
G1 X-83.823 Y43.233 E79.48854
G1 X-84.297 Y42.307 E79.54044
G1 X-84.598 Y41.583 E79.57955
G1 X-84.922 Y40.588 E79.63176
G1 X-85.104 Y39.829 E79.6707
G1 X-85.264 Y38.832 E79.72108
G1 X-85.328 Y38.055 E79.75997
G1 X-85.35 Y37.513 E79.78704
G1 X-85.35 Y-37.511 E83.53
G1 X-85.328 Y-38.051 E83.55696
G1 X-85.264 Y-38.83 E83.59596
G1 X-85.105 Y-39.826 E83.64628
G1 X-84.927 Y-40.57 E83.68444
G1 X-84.611 Y-41.546 E83.73562
G1 X-84.313 Y-42.27 E83.77468
G1 X-83.842 Y-43.199 E83.82665
G1 X-83.429 Y-43.875 E83.86617
G1 X-82.832 Y-44.701 E83.91702
G1 X-82.327 Y-45.297 E83.95599
G1 X-81.577 Y-46.05 E84.00901
G1 X-80.983 Y-46.557 E84.04797
G1 X-80.158 Y-47.157 E84.09887
G1 X-79.484 Y-47.572 E84.13836
G1 X-78.561 Y-48.045 E84.1901
G1 X-77.838 Y-48.346 E84.22917
G1 X-76.844 Y-48.67 E84.28133
G1 X-76.083 Y-48.853 E84.32038
G1 X-75.078 Y-49.014 E84.37116
G1 X-74.296 Y-49.078 E84.4103
G1 X-73.758 Y-49.1 E84.43717
G1 X78.633 Y-49.1 E92.03998
G1 X79.358 Y-49.06 E92.07621
G1 X80.075 Y-48.941 E92.11247
G1 X80.774 Y-48.743 E92.14872
G1 X81.447 Y-48.47 E92.18495
G1 X82.086 Y-48.125 E92.22118
G1 X82.683 Y-47.711 E92.25742
G1 X83.3 Y-47.167 E92.29846
G1 X83.417 Y-47.05 E92.30672
G1 X83.901 Y-46.509 E92.34293
G1 X84.324 Y-45.918 E92.37919
G1 X84.678 Y-45.284 E92.41542
G1 X84.961 Y-44.615 E92.45166
G1 X85.169 Y-43.919 E92.4879
G1 X85.299 Y-43.204 E92.52416
G1 X85.35 Y-42.383 E92.5652
G1 X85.35 Y42.383 E96.79419
G1 X85.31 Y43.108 E96.83041
G1 X85.191 Y43.825 E96.86667
G1 X84.993 Y44.524 E96.90292
G1 X84.72 Y45.197 E96.93915
G1 X84.375 Y45.836 E96.97538
G1 X83.961 Y46.433 E97.01163
G1 X83.417 Y47.05 E97.05267
G1 X83.3 Y47.167 E97.06092
G1 X82.759 Y47.651 E97.09714
G1 X82.168 Y48.074 E97.1334
G1 X81.534 Y48.428 E97.16962
G1 X80.865 Y48.711 E97.20586
G1 X80.169 Y48.919 E97.2421
G1 X79.454 Y49.049 E97.27836
G1 X78.633 Y49.1 E97.3194
G1 X-73.758 Y49.1 E104.92222
G0 F3000 X-73.758 Y48.7
G1 F1500 X-74.264 Y48.679 E104.94748
G1 X-75.046 Y48.615 E104.98663
G1 X-75.983 Y48.466 E105.03396
G1 X-76.727 Y48.288 E105.07213
G1 X-77.644 Y47.991 E105.12022
G1 X-78.368 Y47.693 E105.15928
G1 X-79.24 Y47.251 E105.20805
G1 X-79.916 Y46.838 E105.24757
G1 X-80.693 Y46.277 E105.29539
G1 X-81.29 Y45.771 E105.33443
G1 X-81.997 Y45.066 E105.38424
G1 X-82.504 Y44.472 E105.4232
G1 X-83.067 Y43.698 E105.47095
G1 X-83.482 Y43.024 E105.51044
G1 X-83.928 Y42.153 E105.55926
G1 X-84.229 Y41.429 E105.59838
G1 X-84.533 Y40.495 E105.64738
G1 X-84.715 Y39.736 E105.68632
G1 X-84.865 Y38.799 E105.73367
G1 X-84.929 Y38.022 E105.77256
G1 X-84.95 Y37.513 E105.79798
G1 X-84.95 Y-37.511 E109.54094
G1 X-84.929 Y-38.019 E109.56631
G1 X-84.865 Y-38.798 E109.6053
G1 X-84.716 Y-39.733 E109.65254
G1 X-84.538 Y-40.477 E109.6907
G1 X-84.241 Y-41.394 E109.73879
G1 X-83.943 Y-42.118 E109.77785
G1 X-83.501 Y-42.99 E109.82663
G1 X-83.088 Y-43.666 E109.86615
G1 X-82.527 Y-44.442 E109.91392
G1 X-82.022 Y-45.038 E109.95289
G1 X-81.317 Y-45.746 E110.00274
G1 X-80.723 Y-46.253 E110.0417
G1 X-79.949 Y-46.816 E110.08945
G1 X-79.275 Y-47.231 E110.12894
G1 X-78.407 Y-47.676 E110.17761
G1 X-77.684 Y-47.977 E110.21668
G1 X-76.751 Y-48.281 E110.26563
G1 X-75.99 Y-48.464 E110.30468
G1 X-75.046 Y-48.615 E110.35238
G1 X-74.264 Y-48.679 E110.39152
G1 X-73.758 Y-48.7 E110.41679
G1 X78.633 Y-48.7 E118.01961
G1 X79.336 Y-48.66 E118.05474
G1 X80.03 Y-48.541 E118.08987
G1 X80.705 Y-48.343 E118.12496
G1 X81.354 Y-48.071 E118.16007
G1 X81.968 Y-47.726 E118.1952
G1 X82.539 Y-47.315 E118.2303
G1 X83.017 Y-46.884 E118.26241
G1 X83.134 Y-46.767 E118.27067
G1 X83.603 Y-46.242 E118.30579
G1 X84.009 Y-45.667 E118.34091
G1 X84.347 Y-45.049 E118.37605
G1 X84.614 Y-44.398 E118.41115
G1 X84.804 Y-43.72 E118.44628
G1 X84.917 Y-43.025 E118.48141
G1 X84.95 Y-42.383 E118.51348
G1 X84.95 Y42.383 E122.74248
G1 X84.91 Y43.086 E122.77761
G1 X84.791 Y43.78 E122.81274
G1 X84.593 Y44.455 E122.84783
G1 X84.321 Y45.104 E122.88294
G1 X83.976 Y45.718 E122.91807
G1 X83.565 Y46.289 E122.95317
G1 X83.134 Y46.767 E122.98528
G1 X83.017 Y46.884 E122.99354
G1 X82.492 Y47.353 E123.02866
G1 X81.917 Y47.759 E123.06378
G1 X81.299 Y48.097 E123.09892
G1 X80.648 Y48.364 E123.13402
G1 X79.97 Y48.554 E123.16915
G1 X79.275 Y48.667 E123.20428
G1 X78.633 Y48.7 E123.23635
G1 X-73.758 Y48.7 E130.83917
G0 F3000 X-73.758 Y48.3
G1 F1500 X-74.231 Y48.281 E130.86279
G1 X-75.013 Y48.217 E130.90193
G1 X-75.89 Y48.077 E130.94624
G1 X-76.634 Y47.899 E130.98441
G1 X-77.492 Y47.621 E131.0294
G1 X-78.216 Y47.323 E131.06846
G1 X-79.032 Y46.909 E131.11411
G1 X-79.708 Y46.496 E131.15364
G1 X-80.434 Y45.972 E131.19831
G1 X-81.031 Y45.466 E131.23735
G1 X-81.693 Y44.806 E131.28399
G1 X-82.2 Y44.212 E131.32295
G1 X-82.727 Y43.488 E131.36762
G1 X-83.142 Y42.814 E131.40711
G1 X-83.559 Y42 E131.45274
G1 X-83.86 Y41.276 E131.49186
G1 X-84.144 Y40.401 E131.53776
G1 X-84.326 Y39.642 E131.5767
G1 X-84.466 Y38.766 E131.62096
G1 X-84.53 Y37.989 E131.65985
G1 X-84.55 Y37.513 E131.68362
G1 X-84.55 Y-37.511 E135.42658
G1 X-84.531 Y-37.986 E135.4503
G1 X-84.467 Y-38.765 E135.48929
G1 X-84.327 Y-39.64 E135.5335
G1 X-84.149 Y-40.384 E135.57167
G1 X-83.871 Y-41.242 E135.61667
G1 X-83.573 Y-41.966 E135.65573
G1 X-83.159 Y-42.782 E135.70138
G1 X-82.746 Y-43.458 E135.7409
G1 X-82.222 Y-44.183 E135.78553
G1 X-81.717 Y-44.779 E135.8245
G1 X-81.057 Y-45.442 E135.87117
G1 X-80.463 Y-45.949 E135.91014
G1 X-79.739 Y-46.476 E135.95481
G1 X-79.065 Y-46.891 E135.9943
G1 X-78.253 Y-47.307 E136.03982
G1 X-77.53 Y-47.608 E136.07889
G1 X-76.657 Y-47.892 E136.12469
G1 X-75.896 Y-48.075 E136.16374
G1 X-75.013 Y-48.217 E136.20836
G1 X-74.231 Y-48.281 E136.2475
G1 X-73.758 Y-48.3 E136.27112
G1 X78.633 Y-48.3 E143.87394
G1 X79.313 Y-48.26 E143.90792
G1 X79.983 Y-48.141 E143.94187
G1 X80.635 Y-47.944 E143.97585
G1 X81.259 Y-47.672 E144.00981
G1 X81.847 Y-47.328 E144.0438
G1 X82.391 Y-46.918 E144.07779
G1 X82.734 Y-46.601 E144.10109
G1 X82.851 Y-46.484 E144.10934
G1 X83.304 Y-45.975 E144.14334
G1 X83.693 Y-45.417 E144.17727
G1 X84.015 Y-44.817 E144.21124
G1 X84.264 Y-44.183 E144.24523
G1 X84.437 Y-43.524 E144.27922
G1 X84.531 Y-42.85 E144.31317
G1 X84.55 Y-42.383 E144.33649
G1 X84.55 Y42.383 E148.56548
G1 X84.51 Y43.063 E148.59946
G1 X84.391 Y43.733 E148.63341
G1 X84.194 Y44.385 E148.6674
G1 X83.922 Y45.009 E148.70136
G1 X83.578 Y45.597 E148.73534
G1 X83.168 Y46.141 E148.76933
G1 X82.851 Y46.484 E148.79263
G1 X82.734 Y46.601 E148.80088
G1 X82.225 Y47.054 E148.83488
G1 X81.667 Y47.443 E148.86881
G1 X81.067 Y47.765 E148.90279
G1 X80.433 Y48.014 E148.93677
G1 X79.774 Y48.187 E148.97076
G1 X79.1 Y48.281 E149.00471
G1 X78.633 Y48.3 E149.02803
G1 X-73.758 Y48.3 E156.63085
G0 F3000 X-73.758 Y47.9
G1 F1500 X-74.198 Y47.882 E156.65282
G1 X-74.98 Y47.818 E156.69196
G1 X-75.796 Y47.688 E156.73319
G1 X-76.54 Y47.51 E156.77135
G1 X-77.339 Y47.252 E156.81324
G1 X-78.063 Y46.954 E156.8523
G1 X-78.823 Y46.568 E156.89483
G1 X-79.499 Y46.155 E156.93435
G1 X-80.175 Y45.666 E156.97598
G1 X-80.772 Y45.16 E157.01502
G1 X-81.388 Y44.547 E157.05838
G1 X-81.895 Y43.953 E157.09734
G1 X-82.386 Y43.278 E157.13898
G1 X-82.801 Y42.604 E157.17847
G1 X-83.189 Y41.846 E157.22095
G1 X-83.49 Y41.122 E157.26007
G1 X-83.755 Y40.308 E157.30278
G1 X-83.937 Y39.549 E157.34172
G1 X-84.068 Y38.733 E157.38295
G1 X-84.132 Y37.956 E157.42185
G1 X-84.15 Y37.513 E157.44397
G1 X-84.15 Y-37.511 E161.18693
G1 X-84.132 Y-37.953 E161.209
G1 X-84.068 Y-38.732 E161.24799
G1 X-83.938 Y-39.546 E161.28912
G1 X-83.76 Y-40.29 E161.32728
G1 X-83.502 Y-41.089 E161.36917
