;FLAVOR:Marlin
;TIME:29843
;Filament used: 39.6803m
;Layer height: 0.2
;Generated with Cura_SteamEngine 1.2.3
M140 S60
M104 S230
M109 S230
G28
G1 Z50.00 F400
G92 E0
G1 F200 E3
G92 E0
M132 X Y Z A
M907 X100 Y100 Z50 A100
;LAYER_COUNT:200
;LAYER:0
M107
M204 S2000
G0 F3000 X-73.875 Y47.285 Z0.3
;TYPE:SKIRT
G1 F1500 X-74.296 Y47.267 E0.02102
G1 X-74.955 Y47.209 E0.05403
G1 X-75.653 Y47.095 E0.08931
G1 X-76.404 Y46.915 E0.12784
G1 X-77.126 Y46.68 E0.16572
G1 X-77.87 Y46.371 E0.20591
G1 X-78.542 Y46.028 E0.24356
G1 X-79.198 Y45.625 E0.28197
G1 X-79.898 Y45.101 E0.32559
G1 X-80.637 Y44.435 E0.37522
G1 X-81.219 Y43.807 E0.41794
G1 X-81.723 Y43.156 E0.45901
G1 X-82.143 Y42.514 E0.49729
G1 X-82.514 Y41.833 E0.53598
G1 X-82.775 Y41.271 E0.56689
G1 X-82.893 Y40.927 E0.58504
G1 X-83.273 Y39.671 E0.6505
G1 X-83.414 Y39.068 E0.6814
G1 X-83.464 Y38.655 E0.70215
G1 X-83.526 Y37.861 E0.74189
G1 X-83.541 Y37.487 E0.76056
G1 X-83.54 Y-37.5 E4.50168
G1 X-83.511 Y-38.028 E4.52806
G1 X-83.397 Y-39.059 E4.57981
G1 X-83.289 Y-39.668 E4.61067
G1 X-83.155 Y-40.122 E4.63428
G1 X-82.714 Y-41.377 E4.70065
G1 X-82.471 Y-41.947 E4.73156
G1 X-82.195 Y-42.424 E4.75906
G1 X-81.645 Y-43.26 E4.80898
G1 X-81.272 Y-43.755 E4.8399
G1 X-80.958 Y-44.086 E4.86267
G1 X-80.003 Y-45.002 E4.92868
G1 X-79.529 Y-45.401 E4.95959
G1 X-79.191 Y-45.629 E4.97994
G1 X-78.536 Y-46.031 E5.01828
G1 X-77.875 Y-46.369 E5.05532
G1 X-77.159 Y-46.668 E5.09403
G1 X-76.291 Y-46.937 E5.13936
G1 X-75.248 Y-47.155 E5.19252
G1 X-74.635 Y-47.243 E5.22342
G1 X-74.267 Y-47.257 E5.24179
G1 X78.74 Y-47.29 E12.87534
G1 X79.358 Y-47.25 E12.90624
G1 X79.966 Y-47.131 E12.93715
G1 X80.553 Y-46.935 E12.96802
G1 X81.11 Y-46.664 E12.99893
G1 X81.628 Y-46.325 E13.02981
G1 X82.098 Y-45.921 E13.06073
G1 X82.512 Y-45.46 E13.09165
G1 X82.863 Y-44.95 E13.12253
G1 X83.145 Y-44.399 E13.15341
G1 X83.354 Y-43.816 E13.18431
G1 X83.487 Y-43.21 E13.21527
G1 X83.541 Y-42.49 E13.25129
G1 X83.541 Y42.491 E17.49101
G1 X83.501 Y43.109 E17.5219
G1 X83.382 Y43.717 E17.55281
G1 X83.185 Y44.304 E17.5837
G1 X82.915 Y44.861 E17.61458
G1 X82.575 Y45.379 E17.6455
G1 X82.171 Y45.849 E17.67642
G1 X81.71 Y46.262 E17.7073
G1 X81.2 Y46.613 E17.73818
G1 X80.649 Y46.896 E17.76909
G1 X80.066 Y47.105 E17.79999
G1 X79.46 Y47.237 E17.83093
G1 X78.741 Y47.291 E17.8669
G1 X-73.875 Y47.285 E25.48094
G0 F3000 X-73.875 Y46.885
G1 F1500 X-74.261 Y46.868 E25.50022
G1 X-74.92 Y46.81 E25.53322
G1 X-75.56 Y46.706 E25.56557
G1 X-76.311 Y46.526 E25.6041
G1 X-76.973 Y46.31 E25.63884
G1 X-77.717 Y46.001 E25.67904
G1 X-78.332 Y45.687 E25.71349
G1 X-78.988 Y45.284 E25.7519
G1 X-79.631 Y44.804 E25.79193
G1 X-80.37 Y44.138 E25.84156
G1 X-80.903 Y43.563 E25.88068
G1 X-81.407 Y42.912 E25.92175
G1 X-81.792 Y42.323 E25.95686
G1 X-82.163 Y41.642 E25.99555
G1 X-82.411 Y41.103 E26.02515
G1 X-82.51 Y40.811 E26.04053
G1 X-82.89 Y39.555 E26.106
G1 X-83.024 Y38.977 E26.1356
G1 X-83.066 Y38.624 E26.15333
G1 X-83.128 Y37.83 E26.19307
G1 X-83.141 Y37.487 E26.21019
G1 X-83.14 Y-37.5 E29.95131
G1 X-83.113 Y-37.984 E29.97549
G1 X-82.999 Y-39.015 E30.02724
G1 X-82.895 Y-39.598 E30.05679
G1 X-82.777 Y-39.99 E30.07721
G1 X-82.336 Y-41.245 E30.14358
G1 X-82.102 Y-41.79 E30.17317
G1 X-81.861 Y-42.204 E30.19707
G1 X-81.311 Y-43.04 E30.24699
G1 X-80.952 Y-43.513 E30.27662
G1 X-80.681 Y-43.797 E30.2962
G1 X-79.726 Y-44.713 E30.36222
G1 X-79.271 Y-45.094 E30.39183
G1 X-78.982 Y-45.288 E30.40919
G1 X-78.327 Y-45.69 E30.44754
G1 X-77.721 Y-46 E30.48149
G1 X-77.005 Y-46.299 E30.52021
G1 X-76.209 Y-46.546 E30.56179
G1 X-75.166 Y-46.764 E30.61495
G1 X-74.579 Y-46.846 E30.64452
G1 X-74.267 Y-46.857 E30.66009
G1 X78.74 Y-46.89 E38.29364
G1 X79.332 Y-46.85 E38.32324
G1 X79.913 Y-46.731 E38.35283
G1 X80.472 Y-46.535 E38.38239
G1 X81 Y-46.266 E38.41195
G1 X81.487 Y-45.928 E38.44152
G1 X81.925 Y-45.527 E38.47115
G1 X82.304 Y-45.071 E38.50073
G1 X82.619 Y-44.569 E38.5303
G1 X82.863 Y-44.029 E38.55986
G1 X83.033 Y-43.46 E38.58949
G1 X83.124 Y-42.874 E38.61908
G1 X83.141 Y-42.49 E38.63825
G1 X83.141 Y42.491 E42.87797
G1 X83.101 Y43.083 E42.90758
G1 X82.982 Y43.663 E42.93711
G1 X82.786 Y44.223 E42.96671
G1 X82.516 Y44.751 E42.9963
G1 X82.178 Y45.238 E43.02588
G1 X81.777 Y45.675 E43.05547
G1 X81.322 Y46.055 E43.08504
G1 X80.819 Y46.369 E43.11462
G1 X80.279 Y46.614 E43.14421
G1 X79.71 Y46.783 E43.17382
G1 X79.125 Y46.874 E43.20336
G1 X78.741 Y46.891 E43.22253
G1 X-73.875 Y46.885 E50.83658
G0 F3000 X-73.875 Y46.485
G1 F1500 X-74.226 Y46.47 E50.85411
G1 X-74.885 Y46.412 E50.88711
G1 X-75.466 Y46.317 E50.91648
G1 X-76.217 Y46.137 E50.95501
G1 X-76.819 Y45.941 E50.9866
G1 X-77.563 Y45.632 E51.02679
G1 X-78.123 Y45.346 E51.05816
G1 X-78.779 Y44.943 E51.09657
G1 X-79.363 Y44.506 E51.13296
G1 X-80.102 Y43.84 E51.18259
G1 X-80.587 Y43.318 E51.21814
G1 X-81.091 Y42.667 E51.25921
G1 X-81.441 Y42.132 E51.29111
G1 X-81.812 Y41.451 E51.3298
G1 X-82.128 Y40.695 E51.37068
G1 X-82.508 Y39.439 E51.43615
G1 X-82.633 Y38.888 E51.46433
G1 X-82.667 Y38.592 E51.4792
G1 X-82.729 Y37.798 E51.51893
G1 X-82.741 Y37.487 E51.53446
G1 X-82.74 Y-37.5 E55.27558
G1 X-82.716 Y-37.94 E55.29756
G1 X-82.602 Y-38.971 E55.34931
G1 X-82.5 Y-39.527 E55.37751
G1 X-82.4 Y-39.857 E55.39472
G1 X-81.959 Y-41.112 E55.46108
G1 X-81.734 Y-41.631 E55.4893
G1 X-81.527 Y-41.984 E55.50972
G1 X-80.977 Y-42.82 E55.55964
G1 X-80.633 Y-43.27 E55.5879
G1 X-80.404 Y-43.509 E55.60442
G1 X-79.449 Y-44.425 E55.67044
G1 X-79.014 Y-44.786 E55.69864
G1 X-78.772 Y-44.947 E55.71314
G1 X-78.117 Y-45.349 E55.75148
G1 X-77.566 Y-45.631 E55.78236
G1 X-76.85 Y-45.93 E55.82107
G1 X-76.127 Y-46.154 E55.85883
G1 X-75.084 Y-46.372 E55.91199
G1 X-74.267 Y-46.457 E55.95297
G1 X78.74 Y-46.49 E63.58653
G1 X79.304 Y-46.45 E63.61473
G1 X79.857 Y-46.331 E63.64295
G1 X80.387 Y-46.136 E63.67113
G1 X80.885 Y-45.867 E63.69937
G1 X81.339 Y-45.531 E63.72755
G1 X81.742 Y-45.134 E63.75577
G1 X82.085 Y-44.685 E63.78396
G1 X82.361 Y-44.192 E63.81215
G1 X82.565 Y-43.664 E63.84039
G1 X82.692 Y-43.113 E63.8686
G1 X82.741 Y-42.49 E63.89977
G1 X82.741 Y42.491 E68.13949
G1 X82.701 Y43.055 E68.1677
G1 X82.582 Y43.608 E68.19592
G1 X82.386 Y44.138 E68.22411
G1 X82.118 Y44.635 E68.25229
G1 X81.782 Y45.09 E68.2805
G1 X81.385 Y45.493 E68.30873
G1 X80.935 Y45.835 E68.33693
G1 X80.442 Y46.111 E68.36511
G1 X79.914 Y46.315 E68.39335
G1 X79.364 Y46.442 E68.42152
G1 X78.741 Y46.491 E68.45269
G1 X-73.875 Y46.485 E76.06674
G0 F3000 X-73.875 Y46.085
G1 F1500 X-74.191 Y46.071 E76.08252
G1 X-74.85 Y46.013 E76.11552
G1 X-75.373 Y45.928 E76.14196
G1 X-76.124 Y45.748 E76.18048
G1 X-76.666 Y45.572 E76.20892
G1 X-77.41 Y45.263 E76.24911
G1 X-77.913 Y45.005 E76.27731
G1 X-78.569 Y44.602 E76.31572
G1 X-79.095 Y44.209 E76.34848
G1 X-79.834 Y43.543 E76.39811
G1 X-80.271 Y43.073 E76.43013
G1 X-80.775 Y42.422 E76.4712
G1 X-81.089 Y41.94 E76.4999
G1 X-81.46 Y41.259 E76.53859
G1 X-81.745 Y40.58 E76.57533
G1 X-82.125 Y39.324 E76.6408
G1 X-82.268 Y38.561 E76.67953
G1 X-82.33 Y37.767 E76.71926
G1 X-82.341 Y37.487 E76.73324
G1 X-82.34 Y-37.5 E80.47436
G1 X-82.318 Y-37.896 E80.49415
G1 X-82.204 Y-38.927 E80.5459
G1 X-82.106 Y-39.454 E80.57264
G1 X-82.022 Y-39.724 E80.58675
G1 X-81.581 Y-40.979 E80.65311
G1 X-81.366 Y-41.471 E80.6799
G1 X-81.193 Y-41.765 E80.69692
G1 X-80.643 Y-42.601 E80.74684
G1 X-80.315 Y-43.025 E80.77359
G1 X-80.127 Y-43.22 E80.7871
G1 X-79.172 Y-44.136 E80.85312
G1 X-78.563 Y-44.606 E80.8915
G1 X-77.908 Y-45.008 E80.92984
G1 X-77.412 Y-45.262 E80.95764
G1 X-76.696 Y-45.561 E80.99635
G1 X-76.046 Y-45.763 E81.03031
G1 X-75.003 Y-45.981 E81.08347
G1 X-74.267 Y-46.057 E81.12038
G1 X78.74 Y-46.09 E88.75394
G1 X79.275 Y-46.05 E88.7807
G1 X79.798 Y-45.931 E88.80746
G1 X80.297 Y-45.736 E88.83419
G1 X80.762 Y-45.469 E88.86094
G1 X81.183 Y-45.136 E88.88772
G1 X81.548 Y-44.744 E88.91444
G1 X81.852 Y-44.301 E88.94125
G1 X82.087 Y-43.819 E88.968
G1 X82.247 Y-43.307 E88.99476
G1 X82.329 Y-42.778 E89.02147
G1 X82.341 Y-42.49 E89.03585
G1 X82.341 Y42.491 E93.27557
G1 X82.301 Y43.026 E93.30234
G1 X82.182 Y43.549 E93.32909
G1 X81.987 Y44.048 E93.35582
G1 X81.719 Y44.513 E93.3826
G1 X81.386 Y44.933 E93.40934
G1 X80.994 Y45.299 E93.4361
G1 X80.552 Y45.602 E93.46283
G1 X80.069 Y45.837 E93.48963
G1 X79.558 Y45.997 E93.51634
G1 X79.028 Y46.08 E93.54311
G1 X78.741 Y46.091 E93.55744
G1 X-73.875 Y46.085 E101.17148
G0 F3000 X-73.875 Y45.685
G1 F1500 X-74.156 Y45.673 E101.18551
G1 X-74.815 Y45.615 E101.21852
G1 X-75.28 Y45.539 E101.24202
G1 X-76.031 Y45.359 E101.28055
G1 X-76.512 Y45.202 E101.3058
G1 X-77.256 Y44.893 E101.34599
G1 X-77.704 Y44.665 E101.37107
G1 X-78.36 Y44.262 E101.40948
G1 X-78.827 Y43.912 E101.43859
G1 X-79.566 Y43.246 E101.48823
G1 X-79.954 Y42.828 E101.51668
G1 X-80.458 Y42.177 E101.55775
G1 X-80.738 Y41.749 E101.58327
G1 X-81.109 Y41.068 E101.62196
G1 X-81.362 Y40.464 E101.65463
G1 X-81.742 Y39.208 E101.7201
G1 X-81.869 Y38.53 E101.75451
G1 X-81.931 Y37.736 E101.79424
G1 X-81.941 Y37.487 E101.80668
G1 X-81.94 Y-37.5 E105.54779
G1 X-81.921 Y-37.852 E105.56538
G1 X-81.807 Y-38.883 E105.61713
G1 X-81.645 Y-39.592 E105.65341
G1 X-81.204 Y-40.847 E105.71978
G1 X-80.999 Y-41.309 E105.745
G1 X-80.858 Y-41.545 E105.75871
G1 X-80.308 Y-42.381 E105.80864
G1 X-79.85 Y-42.931 E105.84434
G1 X-78.895 Y-43.847 E105.91036
G1 X-78.354 Y-44.265 E105.94447
G1 X-77.699 Y-44.667 E105.98281
G1 X-77.258 Y-44.893 E106.00754
G1 X-76.542 Y-45.192 E106.04625
G1 X-75.964 Y-45.371 E106.07644
G1 X-74.921 Y-45.589 E106.12959
G1 X-74.267 Y-45.657 E106.1624
G1 X78.74 Y-45.69 E113.79595
G1 X79.244 Y-45.65 E113.82117
G1 X79.736 Y-45.531 E113.84643
G1 X80.202 Y-45.337 E113.87161
G1 X80.632 Y-45.071 E113.89684
G1 X81.015 Y-44.741 E113.92206
G1 X81.342 Y-44.355 E113.9473
G1 X81.603 Y-43.922 E113.97252
G1 X81.793 Y-43.453 E113.99777
G1 X81.906 Y-42.961 E114.02295
G1 X81.941 Y-42.49 E114.04651
G1 X81.941 Y42.491 E118.28623
G1 X81.901 Y42.995 E118.31146
G1 X81.782 Y43.486 E118.33666
G1 X81.588 Y43.953 E118.36189
G1 X81.322 Y44.383 E118.38712
G1 X80.992 Y44.766 E118.41234
G1 X80.605 Y45.092 E118.43758
G1 X80.172 Y45.353 E118.46281
G1 X79.704 Y45.543 E118.48801
G1 X79.211 Y45.656 E118.51324
G1 X78.741 Y45.691 E118.53675
G1 X-73.875 Y45.685 E126.1508
G0 F3000 X-73.728 Y41.9
;TYPE:WALL-INNER
G1 F1500 X-74.44 Y41.843 E126.18643
G1 X-75.105 Y41.684 E126.22055
G1 X-75.745 Y41.419 E126.2551
G1 X-76.338 Y41.056 E126.28979
G1 X-76.86 Y40.61 E126.32405
G1 X-77.306 Y40.088 E126.3583
G1 X-77.669 Y39.495 E126.39299
G1 X-77.934 Y38.855 E126.42755
G1 X-78.093 Y38.19 E126.46166
G1 X-78.15 Y37.481 E126.49714
G1 X-78.15 Y-37.481 E130.23701
G1 X-78.093 Y-38.19 E130.2725
G1 X-77.934 Y-38.855 E130.30661
G1 X-77.669 Y-39.495 E130.34117
G1 X-77.306 Y-40.088 E130.37586
G1 X-76.86 Y-40.61 E130.41011
G1 X-76.338 Y-41.056 E130.44437
G1 X-75.745 Y-41.419 E130.47905
G1 X-75.105 Y-41.684 E130.51361
G1 X-74.44 Y-41.843 E130.54773
G1 X-73.728 Y-41.9 E130.58336
G1 X78.15 Y-41.9 E138.16058
G1 X78.15 Y41.9 E142.34138
G1 X-73.728 Y41.9 E149.91861
G0 F3000 X-73.747 Y42.3
;TYPE:WALL-OUTER
G1 F1500 X-74.501 Y42.24 E149.95634
G1 X-75.231 Y42.065 E149.9938
G1 X-75.925 Y41.778 E150.03126
G1 X-76.574 Y41.38 E150.06925
G1 X-77.144 Y40.894 E150.10662
G1 X-77.63 Y40.324 E150.14399
G1 X-78.028 Y39.675 E150.18197
G1 X-78.315 Y38.981 E150.21944
G1 X-78.49 Y38.251 E150.25689
G1 X-78.55 Y37.5 E150.29448
G1 X-78.55 Y-37.5 E154.03624
G1 X-78.49 Y-38.251 E154.07383
G1 X-78.315 Y-38.981 E154.11128
G1 X-78.028 Y-39.675 E154.14875
G1 X-77.63 Y-40.324 E154.18673
G1 X-77.144 Y-40.894 E154.2241
G1 X-76.574 Y-41.38 E154.26147
G1 X-75.925 Y-41.778 E154.29945
G1 X-75.231 Y-42.065 E154.33692
G1 X-74.501 Y-42.24 E154.37437
G1 X-73.747 Y-42.3 E154.41211
G1 X78.55 Y-42.3 E162.01024
G1 X78.55 Y42.3 E166.23095
G1 X-73.747 Y42.3 E173.82908
G0 F3000 X-73.946 Y42.285
G0 X-76.718 Y40.468
G0 X-77.447 Y39.083
;TYPE:SKIN
G1 F1500 X-75.333 Y41.197 E173.97823
G0 F3000 X-74.509 Y41.455
G1 F1500 X-77.705 Y38.26 E174.20369
G1 X-77.59 Y38.738 E174.22822
G1 X-77.447 Y39.083 E174.24685
G0 F3000 X-77.778 Y37.62
G1 F1500 X-73.871 Y41.528 E174.52255
G1 X-74.377 Y41.488 E174.54787
G1 X-74.509 Y41.455 E174.55466
G0 F3000 X-73.293 Y41.54
G1 F1500 X-77.789 Y37.044 E174.87187
G1 X-77.789 Y37.483 E174.89378
G1 X-77.778 Y37.62 E174.90063
G0 F3000 X-77.789 Y36.478
G1 F1500 X-72.728 Y41.54 E175.25775
G1 X-73.293 Y41.54 E175.28594
G0 F3000 X-72.162 Y41.54
G1 F1500 X-77.789 Y35.913 E175.68295
G1 X-77.789 Y36.478 E175.71114
G0 F3000 X-77.789 Y35.347
G1 F1500 X-71.596 Y41.54 E176.14809
G1 X-72.162 Y41.54 E176.17633
G0 F3000 X-71.03 Y41.54
G1 F1500 X-77.789 Y34.781 E176.65321
G1 X-77.789 Y35.347 E176.68145
G0 F3000 X-77.789 Y34.216
G1 F1500 X-70.465 Y41.54 E177.1982
G1 X-71.03 Y41.54 E177.22639
G0 F3000 X-69.899 Y41.54
G1 F1500 X-77.789 Y33.65 E177.78307
G1 X-77.789 Y34.216 E177.81131
G0 F3000 X-77.789 Y33.084
G1 F1500 X-69.333 Y41.54 E178.40792
G1 X-69.899 Y41.54 E178.43616
G0 F3000 X-68.768 Y41.54
G1 F1500 X-77.789 Y32.519 E179.07264
G1 X-77.789 Y33.084 E179.10083
G0 F3000 X-77.789 Y31.953
G1 F1500 X-68.202 Y41.54 E179.77724
G1 X-68.768 Y41.54 E179.80548
G0 F3000 X-67.636 Y41.54
G1 F1500 X-77.789 Y31.387 E180.52183
G1 X-77.789 Y31.953 E180.55007
G0 F3000 X-77.789 Y30.822
G1 F1500 X-67.071 Y41.54 E181.30628
G1 X-67.636 Y41.54 E181.33447
G0 F3000 X-66.505 Y41.54
G1 F1500 X-77.789 Y30.256 E182.13062
G1 X-77.789 Y30.822 E182.15885
G0 F3000 X-77.789 Y29.69
G1 F1500 X-65.939 Y41.54 E182.99494
G1 X-66.505 Y41.54 E183.02317
G0 F3000 X-65.374 Y41.54
G1 F1500 X-77.789 Y29.125 E183.89912
G1 X-77.789 Y29.69 E183.92731
G0 F3000 X-77.789 Y28.559
G1 F1500 X-64.808 Y41.54 E184.84319
G1 X-65.374 Y41.54 E184.87142
G0 F3000 X-64.242 Y41.54
G1 F1500 X-77.789 Y27.993 E185.82724
G1 X-77.789 Y28.559 E185.85548
G0 F3000 X-77.789 Y27.427
G1 F1500 X-63.677 Y41.54 E186.85119
G1 X-64.242 Y41.54 E186.87938
G0 F3000 X-63.111 Y41.54
G1 F1500 X-77.789 Y26.862 E187.91499
G1 X-77.789 Y27.427 E187.94318
G0 F3000 X-77.789 Y26.296
G1 F1500 X-62.545 Y41.54 E189.01872
G1 X-63.111 Y41.54 E189.04696
G0 F3000 X-61.98 Y41.54
G1 F1500 X-77.789 Y25.73 E190.16241
G1 X-77.789 Y26.296 E190.19064
G0 F3000 X-77.789 Y25.165
G1 F1500 X-61.414 Y41.54 E191.34599
G1 X-61.98 Y41.54 E191.37423
G0 F3000 X-60.848 Y41.54
G1 F1500 X-77.789 Y24.599 E192.56951
G1 X-77.789 Y25.165 E192.59774
G0 F3000 X-77.789 Y24.033
G1 F1500 X-60.282 Y41.54 E193.83296
G1 X-60.848 Y41.54 E193.8612
G0 F3000 X-59.717 Y41.54
G1 F1500 X-77.789 Y23.468 E195.13627
G1 X-77.789 Y24.033 E195.16446
G0 F3000 X-77.789 Y22.902
G1 F1500 X-59.151 Y41.54 E196.47947
G1 X-59.717 Y41.54 E196.50771
G0 F3000 X-58.585 Y41.54
G1 F1500 X-77.789 Y22.336 E197.86266
G1 X-77.789 Y22.902 E197.89089
G0 F3000 X-77.789 Y21.771
G1 F1500 X-58.02 Y41.54 E199.2857
G1 X-58.585 Y41.54 E199.31389
G0 F3000 X-57.454 Y41.54
G1 F1500 X-77.789 Y21.205 E200.74864
G1 X-77.789 Y21.771 E200.77687
G0 F3000 X-77.789 Y20.639
G1 F1500 X-56.888 Y41.54 E202.25155
G1 X-57.454 Y41.54 E202.27979
G0 F3000 X-56.323 Y41.54
G1 F1500 X-77.789 Y20.074 E203.79433
G1 X-77.789 Y20.639 E203.82252
G0 F3000 X-77.789 Y19.508
G1 F1500 X-55.757 Y41.54 E205.377
G1 X-56.323 Y41.54 E205.40523
G0 F3000 X-55.191 Y41.54
G1 F1500 X-77.789 Y18.942 E206.99965
G1 X-77.789 Y19.508 E207.02788
G0 F3000 X-77.789 Y18.376
G1 F1500 X-54.626 Y41.54 E208.66219
G1 X-55.191 Y41.54 E208.69038
G0 F3000 X-54.06 Y41.54
G1 F1500 X-77.789 Y17.811 E210.36459
G1 X-77.789 Y18.376 E210.39278
G0 F3000 X-77.789 Y17.245
G1 F1500 X-53.494 Y41.54 E212.10692
G1 X-54.06 Y41.54 E212.13516
G0 F3000 X-52.929 Y41.54
G1 F1500 X-77.789 Y16.679 E213.8892
G1 X-77.789 Y17.245 E213.91744
G0 F3000 X-77.789 Y16.114
G1 F1500 X-52.363 Y41.54 E215.71138
G1 X-52.929 Y41.54 E215.73962
G0 F3000 X-51.797 Y41.54
G1 F1500 X-77.789 Y15.548 E217.5735
G1 X-77.789 Y16.114 E217.60173
G0 F3000 X-77.789 Y14.982
G1 F1500 X-51.232 Y41.54 E219.47551
G1 X-51.797 Y41.54 E219.5037
G0 F3000 X-50.666 Y41.54
G1 F1500 X-77.789 Y14.417 E221.41737
G1 X-77.789 Y14.982 E221.44556
G0 F3000 X-77.789 Y13.851
G1 F1500 X-50.1 Y41.54 E223.39917
G1 X-50.666 Y41.54 E223.4274
G0 F3000 X-49.534 Y41.54
G1 F1500 X-77.789 Y13.285 E225.42095
