;FLAVOR:Marlin
;TIME:31127
;Filament used: 40.8675m
;Layer height: 0.2
;Generated with Cura_SteamEngine 1.2.3
M140 S60
M104 S230
M109 S230
G28
G1 Z50.00 F400
G92 E0
G1 F200 E3
G92 E0
M132 X Y Z A
M907 X100 Y100 Z50 A100
;LAYER_COUNT:200
;LAYER:0
M107
M204 S2000
G0 F3000 X-73.758 Y50.3 Z0.3
;TYPE:SKIRT
G1 F1500 X-74.394 Y50.274 E0.03176
G1 X-75.176 Y50.21 E0.0709
G1 X-75.959 Y50.106 E0.11031
G1 X-76.355 Y50.022 E0.1305
G1 X-77.099 Y49.844 E0.16867
G1 X-77.857 Y49.622 E0.20808
G1 X-78.253 Y49.471 E0.22922
G1 X-78.977 Y49.173 E0.26828
G1 X-79.691 Y48.836 E0.30767
G1 X-80.075 Y48.616 E0.32975
G1 X-80.751 Y48.203 E0.36927
G1 X-81.403 Y47.758 E0.40865
G1 X-81.733 Y47.492 E0.4298
G1 X-82.33 Y46.985 E0.46888
G1 X-82.905 Y46.444 E0.50826
G1 X-83.21 Y46.109 E0.53087
G1 X-83.717 Y45.516 E0.56979
G1 X-84.199 Y44.89 E0.60921
G1 X-84.43 Y44.537 E0.63025
G1 X-84.845 Y43.863 E0.66974
G1 X-85.224 Y43.17 E0.70915
G1 X-85.405 Y42.767 E0.73119
G1 X-85.706 Y42.043 E0.77031
G1 X-85.972 Y41.3 E0.80968
G1 X-86.089 Y40.868 E0.83201
G1 X-86.271 Y40.109 E0.87095
G1 X-86.416 Y39.333 E0.91033
G1 X-86.46 Y38.93 E0.93056
G1 X-86.524 Y38.153 E0.96946
G1 X-86.55 Y37.513 E1.00141
G1 X-86.55 Y-37.511 E4.74437
G1 X-86.524 Y-38.15 E4.77628
G1 X-86.46 Y-38.929 E4.81528
G1 X-86.355 Y-39.711 E4.85464
G1 X-86.272 Y-40.105 E4.87473
G1 X-86.094 Y-40.849 E4.91289
G1 X-85.872 Y-41.607 E4.9523
G1 X-85.721 Y-42.003 E4.97344
G1 X-85.423 Y-42.727 E5.0125
G1 X-85.086 Y-43.441 E5.05189
G1 X-84.866 Y-43.825 E5.07397
G1 X-84.453 Y-44.501 E5.1135
G1 X-84.008 Y-45.153 E5.15288
G1 X-83.743 Y-45.482 E5.17395
G1 X-83.237 Y-46.078 E5.21296
G1 X-82.696 Y-46.654 E5.25238
G1 X-82.36 Y-46.959 E5.27502
G1 X-81.767 Y-47.466 E5.31395
G1 X-81.141 Y-47.948 E5.35336
G1 X-80.788 Y-48.179 E5.37441
G1 X-80.114 Y-48.594 E5.4139
G1 X-79.421 Y-48.973 E5.45331
G1 X-79.022 Y-49.153 E5.47514
G1 X-78.299 Y-49.454 E5.51422
G1 X-77.555 Y-49.72 E5.55364
G1 X-77.125 Y-49.837 E5.57587
G1 X-76.364 Y-50.02 E5.61492
G1 X-75.588 Y-50.165 E5.6543
G1 X-75.176 Y-50.21 E5.67498
G1 X-74.394 Y-50.274 E5.71412
G1 X-73.758 Y-50.3 E5.74588
G1 X78.633 Y-50.3 E13.3487
G1 X79.422 Y-50.26 E13.38811
G1 X80.202 Y-50.141 E13.42748
G1 X80.967 Y-49.943 E13.4669
G1 X81.707 Y-49.669 E13.50627
G1 X82.416 Y-49.321 E13.54567
G1 X83.087 Y-48.903 E13.58511
G1 X83.711 Y-48.42 E13.62448
G1 X84.148 Y-48.015 E13.65421
G1 X84.265 Y-47.898 E13.66246
G1 X84.795 Y-47.312 E13.70188
G1 X85.262 Y-46.676 E13.74125
G1 X85.663 Y-45.996 E13.78063
G1 X85.993 Y-45.278 E13.82005
G1 X86.248 Y-44.531 E13.85943
G1 X86.427 Y-43.762 E13.89882
G1 X86.527 Y-42.978 E13.93826
G1 X86.55 Y-42.383 E13.96796
G1 X86.55 Y42.383 E18.19695
G1 X86.51 Y43.172 E18.23637
G1 X86.391 Y43.952 E18.27573
G1 X86.193 Y44.717 E18.31516
G1 X85.919 Y45.457 E18.35453
G1 X85.571 Y46.166 E18.39393
G1 X85.153 Y46.837 E18.43337
G1 X84.67 Y47.461 E18.47274
G1 X84.265 Y47.898 E18.50246
G1 X84.148 Y48.015 E18.51072
G1 X83.562 Y48.545 E18.55014
G1 X82.926 Y49.012 E18.5895
G1 X82.246 Y49.413 E18.62889
G1 X81.528 Y49.743 E18.66831
G1 X80.781 Y49.998 E18.70769
G1 X80.012 Y50.177 E18.74708
G1 X79.228 Y50.277 E18.78651
G1 X78.633 Y50.3 E18.81622
G1 X-73.758 Y50.3 E26.41904
G0 F3000 X-73.758 Y49.9
G1 F1500 X-74.362 Y49.875 E26.4492
G1 X-75.144 Y49.811 E26.48834
G1 X-76.262 Y49.633 E26.54482
G1 X-77.006 Y49.455 E26.58299
G1 X-78.101 Y49.101 E26.6404
G1 X-78.825 Y48.803 E26.67946
G1 X-79.52 Y48.474 E26.71782
G1 X-79.866 Y48.275 E26.73774
G1 X-80.542 Y47.862 E26.77726
G1 X-81.474 Y47.187 E26.83467
G1 X-82.071 Y46.68 E26.87375
G1 X-82.631 Y46.153 E26.91211
G1 X-82.906 Y45.849 E26.93256
G1 X-83.413 Y45.256 E26.97149
G1 X-84.089 Y44.327 E27.02881
G1 X-84.504 Y43.653 E27.06829
G1 X-84.873 Y42.978 E27.10667
G1 X-85.036 Y42.614 E27.12657
G1 X-85.337 Y41.89 E27.16569
G1 X-85.595 Y41.165 E27.20408
G1 X-85.7 Y40.775 E27.22423
G1 X-85.882 Y40.016 E27.26317
G1 X-86.061 Y38.897 E27.31971
G1 X-86.125 Y38.12 E27.3586
G1 X-86.15 Y37.513 E27.38891
G1 X-86.15 Y-37.511 E31.13188
G1 X-86.125 Y-38.117 E31.16214
G1 X-86.061 Y-38.896 E31.20113
G1 X-85.883 Y-40.012 E31.25751
G1 X-85.705 Y-40.756 E31.29568
G1 X-85.351 Y-41.851 E31.35309
G1 X-85.053 Y-42.575 E31.39215
G1 X-84.724 Y-43.27 E31.43051
G1 X-84.525 Y-43.616 E31.45043
G1 X-84.112 Y-44.292 E31.48995
G1 X-83.438 Y-45.223 E31.54729
G1 X-82.932 Y-45.819 E31.5863
G1 X-82.405 Y-46.379 E31.62466
G1 X-82.1 Y-46.655 E31.64518
G1 X-81.507 Y-47.162 E31.68411
G1 X-80.578 Y-47.838 E31.74143
G1 X-79.904 Y-48.253 E31.78092
G1 X-79.229 Y-48.622 E31.8193
G1 X-78.868 Y-48.784 E31.83904
G1 X-78.145 Y-49.085 E31.87811
G1 X-77.421 Y-49.343 E31.91645
G1 X-77.031 Y-49.448 E31.9366
G1 X-76.27 Y-49.631 E31.97565
G1 X-75.144 Y-49.811 E32.03254
G1 X-74.362 Y-49.875 E32.07169
G1 X-73.758 Y-49.9 E32.10185
G1 X78.633 Y-49.9 E39.70466
G1 X79.401 Y-49.86 E39.74303
G1 X80.161 Y-49.741 E39.78141
G1 X80.904 Y-49.543 E39.81977
G1 X81.623 Y-49.269 E39.85816
G1 X82.309 Y-48.922 E39.89651
G1 X82.956 Y-48.506 E39.93489
G1 X83.556 Y-48.025 E39.97325
G1 X83.866 Y-47.733 E39.9945
G1 X83.983 Y-47.616 E40.00276
G1 X84.497 Y-47.044 E40.04112
G1 X84.95 Y-46.422 E40.07951
G1 X85.336 Y-45.757 E40.11787
G1 X85.651 Y-45.055 E40.15626
G1 X85.891 Y-44.324 E40.19465
G1 X86.054 Y-43.573 E40.23299
G1 X86.138 Y-42.808 E40.27138
G1 X86.15 Y-42.383 E40.29259
G1 X86.15 Y42.383 E44.52159
G1 X86.11 Y43.151 E44.55995
G1 X85.991 Y43.911 E44.59833
G1 X85.793 Y44.654 E44.63669
G1 X85.519 Y45.373 E44.67508
G1 X85.172 Y46.059 E44.71344
G1 X84.756 Y46.706 E44.75181
G1 X84.275 Y47.306 E44.79018
G1 X83.983 Y47.616 E44.81142
G1 X83.866 Y47.733 E44.81968
G1 X83.294 Y48.247 E44.85804
G1 X82.672 Y48.7 E44.89643
G1 X82.007 Y49.086 E44.93479
G1 X81.305 Y49.401 E44.97318
G1 X80.574 Y49.641 E45.01157
G1 X79.823 Y49.804 E45.04991
G1 X79.058 Y49.888 E45.0883
G1 X78.633 Y49.9 E45.10951
G1 X-73.758 Y49.9 E52.71233
G0 F3000 X-73.758 Y49.5
G1 F1500 X-74.329 Y49.477 E52.74084
G1 X-75.111 Y49.413 E52.77999
G1 X-76.169 Y49.244 E52.83344
G1 X-76.913 Y49.066 E52.87161
G1 X-77.948 Y48.731 E52.92588
G1 X-78.672 Y48.433 E52.96494
G1 X-79.657 Y47.933 E53.02005
G1 X-80.333 Y47.52 E53.05957
G1 X-81.215 Y46.883 E53.11385
G1 X-81.812 Y46.376 E53.15293
G1 X-82.601 Y45.589 E53.20852
G1 X-83.108 Y44.996 E53.24745
G1 X-83.749 Y44.117 E53.30172
G1 X-84.164 Y43.443 E53.34121
G1 X-84.667 Y42.46 E53.3963
G1 X-84.968 Y41.736 E53.43542
G1 X-85.311 Y40.681 E53.49077
G1 X-85.493 Y39.922 E53.52971
G1 X-85.662 Y38.865 E53.58311
G1 X-85.726 Y38.088 E53.62201
G1 X-85.75 Y37.513 E53.65072
G1 X-85.75 Y-37.511 E57.39368
G1 X-85.726 Y-38.084 E57.42229
G1 X-85.662 Y-38.863 E57.46129
G1 X-85.494 Y-39.919 E57.51464
G1 X-85.316 Y-40.663 E57.5528
G1 X-84.981 Y-41.698 E57.60707
G1 X-84.683 Y-42.422 E57.64614
G1 X-84.183 Y-43.407 E57.70125
G1 X-83.77 Y-44.083 E57.74077
G1 X-83.133 Y-44.964 E57.79501
G1 X-82.627 Y-45.56 E57.83401
G1 X-81.84 Y-46.35 E57.88965
G1 X-81.247 Y-46.857 E57.92857
G1 X-80.368 Y-47.498 E57.98284
G1 X-79.694 Y-47.913 E58.02233
G1 X-78.714 Y-48.414 E58.07724
G1 X-77.991 Y-48.715 E58.11632
G1 X-76.938 Y-49.059 E58.17158
G1 X-76.177 Y-49.242 E58.21063
G1 X-75.111 Y-49.413 E58.26449
G1 X-74.329 Y-49.477 E58.30364
G1 X-73.758 Y-49.5 E58.33215
G1 X78.633 Y-49.5 E65.93497
G1 X79.38 Y-49.46 E65.97229
G1 X80.118 Y-49.341 E66.00958
G1 X80.84 Y-49.143 E66.04693
G1 X81.536 Y-48.87 E66.08423
G1 X82.199 Y-48.523 E66.12157
G1 X82.822 Y-48.108 E66.15891
G1 X83.583 Y-47.45 E66.2091
G1 X83.7 Y-47.333 E66.21736
G1 X84.2 Y-46.776 E66.2547
G1 X84.637 Y-46.17 E66.29198
G1 X85.008 Y-45.52 E66.32932
G1 X85.307 Y-44.834 E66.36665
G1 X85.531 Y-44.12 E66.40398
G1 X85.678 Y-43.387 E66.44128
G1 X85.75 Y-42.383 E66.4915
G1 X85.75 Y42.383 E70.72049
G1 X85.71 Y43.13 E70.75781
G1 X85.591 Y43.868 E70.79511
G1 X85.393 Y44.59 E70.83246
G1 X85.12 Y45.286 E70.86976
G1 X84.773 Y45.949 E70.90709
G1 X84.358 Y46.572 E70.94444
G1 X83.7 Y47.333 E70.99463
G1 X83.583 Y47.45 E71.00288
G1 X83.026 Y47.95 E71.04023
G1 X82.42 Y48.387 E71.0775
G1 X81.77 Y48.758 E71.11484
G1 X81.084 Y49.057 E71.15217
G1 X80.37 Y49.281 E71.18951
G1 X79.637 Y49.428 E71.22681
G1 X78.633 Y49.5 E71.27702
G1 X-73.758 Y49.5 E78.87984
G0 F3000 X-73.758 Y49.1
G1 F1500 X-74.296 Y49.078 E78.9067
G1 X-75.078 Y49.014 E78.94585
G1 X-76.076 Y48.855 E78.99627
G1 X-76.82 Y48.677 E79.03443
G1 X-77.796 Y48.361 E79.08562
G1 X-78.52 Y48.063 E79.12468
G1 X-79.449 Y47.592 E79.17664
G1 X-80.125 Y47.179 E79.21616
G1 X-80.956 Y46.578 E79.26733
G1 X-81.553 Y46.071 E79.3064
G1 X-82.297 Y45.329 E79.35883
G1 X-82.804 Y44.736 E79.39775
G1 X-83.408 Y43.907 E79.44892
G1 X-83.823 Y43.233 E79.48841
G1 X-84.297 Y42.307 E79.54031
G1 X-84.598 Y41.583 E79.57943
G1 X-84.922 Y40.588 E79.63163
G1 X-85.104 Y39.829 E79.67057
G1 X-85.264 Y38.832 E79.72095
G1 X-85.328 Y38.055 E79.75985
G1 X-85.35 Y37.513 E79.78691
G1 X-85.35 Y-37.511 E83.52987
G1 X-85.328 Y-38.051 E83.55684
G1 X-85.264 Y-38.83 E83.59583
G1 X-85.105 Y-39.826 E83.64615
G1 X-84.927 Y-40.57 E83.68432
G1 X-84.611 Y-41.546 E83.7355
G1 X-84.313 Y-42.27 E83.77456
G1 X-83.842 Y-43.199 E83.82652
G1 X-83.429 Y-43.875 E83.86604
G1 X-82.828 Y-44.706 E83.91721
G1 X-82.322 Y-45.302 E83.95622
G1 X-81.58 Y-46.046 E84.00864
G1 X-80.987 Y-46.553 E84.04756
G1 X-80.158 Y-47.157 E84.09873
G1 X-79.484 Y-47.572 E84.13822
G1 X-78.561 Y-48.045 E84.18997
G1 X-77.838 Y-48.346 E84.22904
G1 X-76.844 Y-48.67 E84.2812
G1 X-76.083 Y-48.853 E84.32025
G1 X-75.078 Y-49.014 E84.37102
G1 X-74.296 Y-49.078 E84.41017
G1 X-73.758 Y-49.1 E84.43703
G1 X78.633 Y-49.1 E92.03985
G1 X79.358 Y-49.06 E92.07608
G1 X80.075 Y-48.941 E92.11234
G1 X80.774 Y-48.743 E92.14858
G1 X81.447 Y-48.47 E92.18482
G1 X82.086 Y-48.125 E92.22104
G1 X82.683 Y-47.711 E92.25729
G1 X83.3 Y-47.167 E92.29833
G1 X83.417 Y-47.05 E92.30658
G1 X83.901 Y-46.509 E92.3428
G1 X84.324 Y-45.918 E92.37906
G1 X84.678 Y-45.284 E92.41528
G1 X84.961 Y-44.615 E92.45152
G1 X85.169 Y-43.919 E92.48777
G1 X85.299 Y-43.204 E92.52402
G1 X85.35 Y-42.383 E92.56506
G1 X85.35 Y42.383 E96.79405
G1 X85.31 Y43.108 E96.83028
G1 X85.191 Y43.825 E96.86654
G1 X84.993 Y44.524 E96.90279
G1 X84.72 Y45.197 E96.93902
G1 X84.375 Y45.836 E96.97525
G1 X83.961 Y46.433 E97.01149
G1 X83.417 Y47.05 E97.05253
G1 X83.3 Y47.167 E97.06079
G1 X82.759 Y47.651 E97.097
G1 X82.168 Y48.074 E97.13326
G1 X81.534 Y48.428 E97.16949
G1 X80.865 Y48.711 E97.20573
G1 X80.169 Y48.919 E97.24197
G1 X79.454 Y49.049 E97.27823
G1 X78.633 Y49.1 E97.31926
G1 X-73.758 Y49.1 E104.92208
G0 F3000 X-73.758 Y48.7
G1 F1500 X-74.264 Y48.679 E104.94735
G1 X-75.046 Y48.615 E104.98649
G1 X-75.983 Y48.466 E105.03383
G1 X-76.727 Y48.288 E105.07199
G1 X-77.644 Y47.991 E105.12008
G1 X-78.368 Y47.693 E105.15914
G1 X-79.24 Y47.251 E105.20792
G1 X-79.916 Y46.838 E105.24744
G1 X-80.697 Y46.273 E105.29553
G1 X-81.294 Y45.766 E105.33461
G1 X-81.993 Y45.069 E105.38385
G1 X-82.5 Y44.476 E105.42278
G1 X-83.067 Y43.698 E105.47081
G1 X-83.482 Y43.024 E105.5103
G1 X-83.928 Y42.153 E105.55912
G1 X-84.229 Y41.429 E105.59823
G1 X-84.533 Y40.495 E105.64724
G1 X-84.715 Y39.736 E105.68618
G1 X-84.865 Y38.799 E105.73352
G1 X-84.929 Y38.022 E105.77242
G1 X-84.95 Y37.513 E105.79783
G1 X-84.95 Y-37.511 E109.54079
G1 X-84.929 Y-38.019 E109.56616
G1 X-84.865 Y-38.798 E109.60515
G1 X-84.716 Y-39.733 E109.65239
G1 X-84.538 Y-40.477 E109.69056
G1 X-84.241 Y-41.394 E109.73865
G1 X-83.943 Y-42.118 E109.77771
G1 X-83.501 Y-42.99 E109.82648
G1 X-83.088 Y-43.666 E109.866
G1 X-82.523 Y-44.447 E109.91409
G1 X-82.017 Y-45.043 E109.9531
G1 X-81.32 Y-45.742 E110.00235
G1 X-80.727 Y-46.249 E110.04127
G1 X-79.949 Y-46.816 E110.0893
G1 X-79.275 Y-47.231 E110.12879
G1 X-78.407 Y-47.676 E110.17745
G1 X-77.684 Y-47.977 E110.21652
G1 X-76.751 Y-48.281 E110.26548
G1 X-75.99 Y-48.464 E110.30453
G1 X-75.046 Y-48.615 E110.35222
G1 X-74.264 Y-48.679 E110.39137
G1 X-73.758 Y-48.7 E110.41663
G1 X78.633 Y-48.7 E118.01945
G1 X79.336 Y-48.66 E118.05458
G1 X80.03 Y-48.541 E118.08971
G1 X80.705 Y-48.343 E118.12481
G1 X81.354 Y-48.071 E118.15991
G1 X81.968 Y-47.726 E118.19505
G1 X82.539 Y-47.315 E118.23015
G1 X83.017 Y-46.884 E118.26226
G1 X83.134 Y-46.767 E118.27052
G1 X83.603 Y-46.242 E118.30564
G1 X84.009 Y-45.667 E118.34075
G1 X84.347 Y-45.049 E118.3759
G1 X84.614 Y-44.398 E118.411
G1 X84.804 Y-43.72 E118.44613
G1 X84.917 Y-43.025 E118.48126
G1 X84.95 Y-42.383 E118.51333
G1 X84.95 Y42.383 E122.74232
G1 X84.91 Y43.086 E122.77745
G1 X84.791 Y43.78 E122.81258
G1 X84.593 Y44.455 E122.84768
G1 X84.321 Y45.104 E122.88278
G1 X83.976 Y45.718 E122.91792
G1 X83.565 Y46.289 E122.95302
G1 X83.134 Y46.767 E122.98513
G1 X83.017 Y46.884 E122.99339
G1 X82.492 Y47.353 E123.02851
G1 X81.917 Y47.759 E123.06362
G1 X81.299 Y48.097 E123.09877
G1 X80.648 Y48.364 E123.13387
G1 X79.97 Y48.554 E123.169
G1 X79.275 Y48.667 E123.20413
G1 X78.633 Y48.7 E123.2362
G1 X-73.758 Y48.7 E130.83902
G0 F3000 X-73.758 Y48.3
G1 F1500 X-74.231 Y48.281 E130.86263
G1 X-75.013 Y48.217 E130.90178
G1 X-75.89 Y48.077 E130.94609
G1 X-76.634 Y47.899 E130.98425
G1 X-77.492 Y47.621 E131.02925
G1 X-78.216 Y47.323 E131.06831
G1 X-79.032 Y46.909 E131.11396
G1 X-79.708 Y46.496 E131.15348
G1 X-80.438 Y45.968 E131.19843
G1 X-81.035 Y45.461 E131.23751
G1 X-81.689 Y44.809 E131.28358
G1 X-82.196 Y44.216 E131.3225
G1 X-82.727 Y43.488 E131.36746
G1 X-83.142 Y42.814 E131.40695
G1 X-83.559 Y42 E131.45258
G1 X-83.86 Y41.276 E131.49169
G1 X-84.144 Y40.401 E131.53759
G1 X-84.326 Y39.642 E131.57653
G1 X-84.466 Y38.766 E131.62079
G1 X-84.53 Y37.989 E131.65968
G1 X-84.55 Y37.513 E131.68345
G1 X-84.55 Y-37.511 E135.42642
G1 X-84.531 Y-37.986 E135.45013
G1 X-84.467 Y-38.765 E135.48913
G1 X-84.327 Y-39.64 E135.53334
G1 X-84.149 Y-40.384 E135.5715
G1 X-83.871 Y-41.242 E135.6165
G1 X-83.573 Y-41.966 E135.65556
G1 X-83.159 Y-42.782 E135.70121
G1 X-82.746 Y-43.458 E135.74073
G1 X-82.218 Y-44.188 E135.78568
G1 X-81.712 Y-44.784 E135.82469
G1 X-81.06 Y-45.438 E135.87076
G1 X-80.467 Y-45.945 E135.90968
G1 X-79.739 Y-46.476 E135.95464
G1 X-79.065 Y-46.891 E135.99413
G1 X-78.253 Y-47.307 E136.03964
G1 X-77.53 Y-47.608 E136.07872
G1 X-76.657 Y-47.892 E136.12452
G1 X-75.896 Y-48.075 E136.16357
G1 X-75.013 Y-48.217 E136.20818
G1 X-74.231 Y-48.281 E136.24733
G1 X-73.758 Y-48.3 E136.27095
G1 X78.633 Y-48.3 E143.87376
G1 X79.313 Y-48.26 E143.90775
G1 X79.983 Y-48.141 E143.9417
G1 X80.635 Y-47.944 E143.97568
G1 X81.259 Y-47.672 E144.00964
G1 X81.847 Y-47.328 E144.04363
G1 X82.391 Y-46.918 E144.07761
G1 X82.734 Y-46.601 E144.10091
G1 X82.851 Y-46.484 E144.10917
G1 X83.304 Y-45.975 E144.14316
G1 X83.693 Y-45.417 E144.1771
G1 X84.015 Y-44.817 E144.21107
G1 X84.264 Y-44.183 E144.24505
G1 X84.437 Y-43.524 E144.27904
G1 X84.531 Y-42.85 E144.313
G1 X84.55 Y-42.383 E144.33631
G1 X84.55 Y42.383 E148.56531
G1 X84.51 Y43.063 E148.59929
G1 X84.391 Y43.733 E148.63324
G1 X84.194 Y44.385 E148.66722
G1 X83.922 Y45.009 E148.70118
G1 X83.578 Y45.597 E148.73517
G1 X83.168 Y46.141 E148.76915
G1 X82.851 Y46.484 E148.79245
G1 X82.734 Y46.601 E148.80071
G1 X82.225 Y47.054 E148.8347
G1 X81.667 Y47.443 E148.86864
G1 X81.067 Y47.765 E148.90261
G1 X80.433 Y48.014 E148.93659
G1 X79.774 Y48.187 E148.97059
G1 X79.1 Y48.281 E149.00454
G1 X78.633 Y48.3 E149.02786
G1 X-73.758 Y48.3 E156.63067
G0 F3000 X-73.758 Y47.9
G1 F1500 X-74.198 Y47.882 E156.65264
G1 X-74.98 Y47.818 E156.69179
G1 X-75.796 Y47.688 E156.73301
G1 X-76.54 Y47.51 E156.77118
G1 X-77.339 Y47.252 E156.81307
G1 X-78.063 Y46.954 E156.85213
G1 X-78.823 Y46.568 E156.89465
G1 X-79.499 Y46.155 E156.93418
G1 X-80.179 Y45.663 E156.97605
G1 X-80.776 Y45.156 E157.01513
G1 X-81.385 Y44.549 E157.05802
G1 X-81.892 Y43.956 E157.09695
G1 X-82.386 Y43.278 E157.1388
G1 X-82.801 Y42.604 E157.17829
G1 X-83.189 Y41.846 E157.22077
G1 X-83.49 Y41.122 E157.25989
G1 X-83.755 Y40.308 E157.3026
G1 X-83.937 Y39.549 E157.34154
G1 X-84.068 Y38.733 E157.38277
G1 X-84.132 Y37.956 E157.42167
G1 X-84.15 Y37.513 E157.44379
G1 X-84.15 Y-37.511 E161.18675
G1 X-84.132 Y-37.953 E161.20882
G1 X-84.068 Y-38.732 E161.24781
G1 X-83.938 Y-39.546 E161.28894
G1 X-83.76 Y-40.29 E161.3271
G1 X-83.502 Y-41.089 E161.36899
G1 X-83.204 Y-41.813 E161.40805
G1 X-82.818 Y-42.573 E161.45058
